!!!!SEGMENT: pl-cz--iii-830--001-002_raszek-waclaw--sinfonia-d-allegro-vivace.krn
!!!cenid: 17xx:1092
!!!COM: Raszek, Wacław
!!!COM-rismID: pe30020314
!!!CDT: <1848->1848
!!!CNT:
!!!OPR: Sinfonia D
!!!OTL: Allegro vivace
!!!OMV: 002
!!!PDT:
!!!AGN: Secular
!!!SMS-siglum: PL-CZ
!!!SMS-shelfmark: III-830
!!!SMS-shelfwork: 001-002 M
!!!SMS-variant:
!!!SMS-altvar:
!!!NIFC-rismSourceID: 300001061
!!!NIFC-rismChildID: 300001061
!!!NIFC-islandoraID: pl-cz:41068
!!!URL-pdf-islandora: https://repozytorium.nifc.pl/islandora/object/pl-cz%3A41068/datastream/PDF/view
!!!URL-scan: https://polish.musicsources.pl/pl/lokalizacje/galeria/rekopisy/7012/1 @EN{Scan on Polish Music Sources Website} @PL{Skany w portalu Dziedzictwo Muzyki Polskiej w otwartym dostępie}
!!!IIIF:
!!!ONB-nifc: UWAGA: części Sinfonii: Maestoso, Allegro vivace, Romance, Rondo
!!!AIN: 2 clars 1 cor 2 violn
!!!key: D
**kern	**dynam	**kern	**dynam	**kern	**dynam	**kern	**dynam	**kern	**dynam	**kern	**dynam
*part6	*part6	*part5	*part5	*part4	*part4	*part3	*part3	*part2	*part2	*part1	*part1
*staff6	*	*staff5	*	*staff4	*	*staff3	*	*staff2	*	*staff1	*
*I"basso	*	*I"Violino ſecundo	*	*I"Violino Primo	*	*I"Cornu Prymo in D.	*	*I"Clarynetto ſecundo welohce	*	*I"Clarynetto prymo welohce	*
*I'b	*	*I'vl II	*	*I'vl I	*	*I'cor I	*	*I'cl II	*	*I'cl I	*
*ICstr	*	*ICstr	*	*ICstr	*	*ICbras	*	*ICww	*	*ICww	*
*	*	*Ivioln	*	*Ivioln	*	*Icor	*	*Iclars	*	*Iclars	*
*clefF4	*	*clefG2	*	*clefG2	*	*clefG2	*	*clefG2	*	*clefG2	*
*D:	*	*D:	*	*D:	*	*D:	*	*D:	*	*D:	*
*	*	*	*	*	*	*ITrd6c10	*	*	*	*	*
*k[f#c#]	*	*k[f#c#]	*	*k[f#c#]	*	*k[f#c#]	*	*k[f#c#]	*	*k[f#c#]	*
*M3/4	*	*M3/4	*	*M3/4	*	*M3/4	*	*M3/4	*	*M3/4	*
=1	=1	=1	=1	=1	=1	=1	=1	=1	=1	=1	=1
*	*	*	*	*^	*	*	*	*	*	*	*
!	!	!	!	!	!	!	!	!	!	!	!LO:TX:t=P:problem=wyjątkowo niewyraźne nuty, możliwe przesunięcia	!
!	!	!	!	!	!	!	!	!	!	!	!LO:TX:a:B:t=Allegro wiwace	!
!LO:TX:t=P:problem=brak jednej strony basso	!	!LO:TX:a:B:t=Alegro wiwacze.	!	!LO:TX:a:B:t=Alegro wiwacze.	!	!	!LO:TX:a:B:t=Alegro	!LO:DY:a	!LO:TX:a:B:t=Alegro	!	!	!
!	!	!	!	!	!	!	!	!	!	!	!	!LO:DY:t=f.
!	!	!	!	!	!	!	!	!LO:DY:t=for	!	!	!	!
2.ryy	.	4f#/ 4a	.	4ee/	4f#\	.	4d\	f	4f#/	.	4dd\	f
.	.	4f#/ 4a	.	4dd/	4g\	.	4d\	.	4f#/	.	4dd\	.
.	.	4e/ 4a	.	4ee/	4a\	.	4e\	.	4a/	.	4ee\	.
*	*	*	*	*v	*v	*	*	*	*	*	*	*
=2	=2	=2	=2	=2	=2	=2	=2	=2	=2	=2	=2
*	*	*2\right	*	*2\right	*	*	*	*2\right	*	*2\right	*
2.ryy	.	2f#/ 2a	.	2ff#\	.	2f#\	.	2dd\	.	2ff#\	.
.	.	4b/	.	4gg\	.	4g\	.	4ee\	.	4gg\	.
=3	=3	=3	=3	=3	=3	=3	=3	=3	=3	=3	=3
2.ryy	.	4cc#\	.	4ee\	.	4e\	.	4cc#\	.	4ee\	.
.	.	4b\	.	4dd\	.	4e\	.	4cc#\	.	4ee\	.
.	.	4cc#\	.	4ee\	.	4e\	.	4cc#\	.	4ee\	.
=4	=4	=4	=4	=4	=4	=4	=4	=4	=4	=4	=4
2.ryy	.	4cc#\	.	8ee\L	.	4e\	.	4cc#\	.	4ee\	.
.	.	.	.	8ff#\	.	.	.	.	.	.	.
.	.	4r	.	8gg\	.	4r	.	4r	.	4r	.
.	.	.	.	8ff#\	.	.	.	.	.	.	.
.	.	4e/ 4a	.	8gg\	.	4e\	.	4a/	.	8gg\L	.
.	.	.	.	8ee\J	.	.	.	.	.	8ff#\J	.
=5	=5	=5	=5	=5	=5	=5	=5	=5	=5	=5	=5
2.ryy	.	4f#/ 4a	.	4dd\	.	4d\	.	4f#/	.	4dd\	.
.	.	4f#/ 4a	.	4dd\	.	4d\	.	4g/	.	4dd\	.
!	!	!	!	!LO:TX:a:t=e	!	!	!	!	!	!	!
.	.	4e/ 4a	.	4ee\	.	4e\	.	4a/	.	4ee\	.
=6	=6	=6	=6	=6	=6	=6	=6	=6	=6	=6	=6
2.ryy	.	2f#/ 2a	.	2ff#\	.	2f#\	.	2dd\	.	2ff#\	.
.	.	4b/	.	4gg\	.	4g\	.	4ee\	.	4gg\	.
!	!	!LO:LB:g=original	!	!	!	!	!	!	!	!	!
=7	=7	=7	=7	=7	=7	=7	=7	=7	=7	=7	=7
2.ryy	.	4cc#\	.	4ee\	.	4e\	.	4cc#\	.	4ee\	.
.	.	4cc#\	.	4ee\	.	4e\	.	4cc#\	.	4ee\	.
.	.	4cc#\	.	4ee\	.	4e\	.	4cc#\	.	4ee\	.
!	!	!	!	!LO:LB:g=original	!	!	!	!	!	!	!
=8	=8	=8	=8	=8	=8	=8	=8	=8	=8	=8	=8
2.ryy	.	4cc#\	.	8ee\L	.	4e\	.	4cc#\	.	4ee\	.
.	.	.	.	8ff#\J	.	.	.	.	.	.	.
.	.	4r	.	8gg\L	.	4r	.	4r	.	4r	.
.	.	.	.	8ff#\J	.	.	.	.	.	.	.
.	.	4r	.	8gg\L	.	4r	.	4r	.	4r	.
.	.	.	.	8gg#X\J	.	.	.	.	.	.	.
=9	=9	=9	=9	=9	=9	=9	=9	=9	=9	=9	=9
*	*	*^	*	*	*	*	*	*	*	*	*
2.ryy	.	2.d/	8a/	.	4aa\	.	2.d\	.	2.dd\	.	2.aa\	.
.	.	.	4a/	.	.	.	.	.	.	.	.	.
.	.	.	.	.	4aa\	.	.	.	.	.	.	.
.	.	.	4a/	.	.	.	.	.	.	.	.	.
.	.	.	.	.	4ddd\	.	.	.	.	.	.	.
.	.	.	8a/	.	.	.	.	.	.	.	.	.
=10	=10	=10	=10	=10	=10	=10	=10	=10	=10	=10	=10	=10
2.ryy	.	2.d/	8b/	.	2bb\	.	2.d\	.	2.dd\	.	2.bb\	.
.	.	.	4b/	.	.	.	.	.	.	.	.	.
.	.	.	4b/	.	.	.	.	.	.	.	.	.
.	.	.	.	.	4ddd\	.	.	.	.	.	.	.
.	.	.	8b/	.	.	.	.	.	.	.	.	.
*	*	*v	*v	*	*	*	*	*	*	*	*	*
!	!	!	!	!	!	!	!	!	!	!LO:LB:g=original	!
!	!	!	!	!	!	!	!LO:LB:g=original	!	!LO:LB:g=original	!	!
=11	=11	=11	=11	=11	=11	=11	=11	=11	=11	=11	=11
2.ryy	.	8e/ 8a	.	4ff#\	.	4f#\	.	4dd\	.	4ff#\	.
.	.	4e/ 4a	.	.	.	.	.	.	.	.	.
.	.	.	.	4gg\	.	4g\	.	4ee\	.	4gg\	.
.	.	4e/ 4a	.	.	.	.	.	.	.	.	.
.	.	.	.	4ee\	.	4e\	.	4ee\	.	4gg\	.
.	.	8g/	.	.	.	.	.	.	.	.	.
=12	=12	=12	=12	=12	=12	=12	=12	=12	=12	=12	=12
2.ryy	.	8f#/	.	4dd\	.	4d\	.	4dd\	.	4ff#\	.
.	.	4f#/	.	.	.	.	.	.	.	.	.
.	.	.	.	4dd\	.	4d\	.	4dd\	.	4ff#\	.
.	.	4f#/	.	.	.	.	.	.	.	.	.
.	.	.	.	4dd\	.	4d\	.	4dd\	.	4ff#\	.
.	.	8f#/	.	.	.	.	.	.	.	.	.
=13	=13	=13	=13	=13	=13	=13	=13	=13	=13	=13	=13
*	*	*^	*	*	*	*	*	*	*	*	*
2.ryy	.	2.d/	8a/	.	4aa\	.	2.d\	.	4dd\	.	4aa\	.
.	.	.	4a/	.	.	.	.	.	.	.	.	.
.	.	.	.	.	4aa\	.	.	.	4dd\	.	4aa\	.
.	.	.	4a/	.	.	.	.	.	.	.	.	.
.	.	.	.	.	4ddd\	.	.	.	4dd\	.	4aa\	.
.	.	.	8a/	.	.	.	.	.	.	.	.	.
=14	=14	=14	=14	=14	=14	=14	=14	=14	=14	=14	=14	=14
2.ryy	.	2.d/	8b/	.	4bb\	.	2.d\	.	4dd\	.	4bb\	.
.	.	.	4b/	.	.	.	.	.	.	.	.	.
.	.	.	.	.	4bb\	.	.	.	4dd\	.	4bb\	.
.	.	.	4b/	.	.	.	.	.	.	.	.	.
.	.	.	.	.	4ddd\	.	.	.	4dd\	.	4bb\	.
.	.	.	8b/	.	.	.	.	.	.	.	.	.
*	*	*v	*v	*	*	*	*	*	*	*	*	*
!	!	!LO:LB:g=original	!	!	!	!	!	!	!	!	!
=15	=15	=15	=15	=15	=15	=15	=15	=15	=15	=15	=15
2.ryy	.	8ff#\L	.	8aa\L	.	4a\	.	4ff#\	.	4aa\	.
.	.	8ee\J	.	8gg\J	.	.	.	.	.	.	.
.	.	4dd\	.	4ff#\	.	4f#\	.	4dd\	.	4ff#\	.
!	!	!	!	!	!	!	!	!	!	!LO:TX:b:t=e	!
.	.	4g/	.	4ee\	.	4e\	.	4cc#\	.	4ee\	.
=16	=16	=16	=16	=16	=16	=16	=16	=16	=16	=16	=16
2.ryy	.	4f#/	.	4dd\	.	4d\	.	4dd\	.	4ff#\	.
.	.	4r	.	4r	.	4r	.	4r	.	4r	.
.	.	4r	.	4r	.	4r	.	4r	.	4r	.
!	!	!	!	!LO:LB:g=original	!	!	!	!	!	!	!
=17	=17	=17||:	=17	=17	=17	=17	=17	=17	=17	=17	=17
!	!	!	!LO:DY:a	!	!LO:DY:a	!LO:TX:a:t=7	!	!LO:TX:a:t=7	!	!LO:TX:a:t=7.	!
2.ryy	.	(2.a/	p	4aa`\	p	2.r	.	2.r	.	2.r	.
.	.	.	.	(4aa\	.	.	.	.	.	.	.
.	.	.	.	4ggn\)	.	.	.	.	.	.	.
=18	=18	=18	=18	=18	=18	=18	=18	=18	=18	=18	=18
2.ryy	.	2.a/	.	4ff#`\	.	2.r	.	2.r	.	2.r	.
.	.	.	.	(4ff#\	.	.	.	.	.	.	.
.	.	.	.	4ee\)	.	.	.	.	.	.	.
=19	=19	=19	=19	=19	=19	=19	=19	=19	=19	=19	=19
2.ryy	.	2.g#X/)	.	4dd`\	.	2.r	.	2.r	.	2.r	.
.	.	.	.	(4dd\	.	.	.	.	.	.	.
.	.	.	.	4ee\)	.	.	.	.	.	.	.
=20	=20	=20:||	=20	=20	=20	=20	=20	=20	=20	=20	=20
2.ryy	.	4a/	.	(8dd\L	.	2.r	.	2.r	.	2.r	.
.	.	.	.	8dd\	.	.	.	.	.	.	.
.	.	4r	.	8ee\	.	.	.	.	.	.	.
.	.	.	.	8ff#\	.	.	.	.	.	.	.
.	.	4r	.	8gg\	.	.	.	.	.	.	.
.	.	.	.	8gg#X\J)	.	.	.	.	.	.	.
=21	=21	=21	=21	=21	=21	=21	=21	=21	=21	=21	=21
!	!	!LO:TX:t=P:problem= Takty 21-24 zapisane repetycją	!	!	!	!	!	!	!	!	!
2.ryy	.	2.a/yy	.	4aa\	.	2.r	.	2.r	.	2.r	.
.	.	.	.	(8aa\L	.	.	.	.	.	.	.
.	.	.	.	8gg#X\)	.	.	.	.	.	.	.
.	.	.	.	(8aa\	.	.	.	.	.	.	.
.	.	.	.	8ggn\J)	.	.	.	.	.	.	.
=22	=22	=22	=22	=22	=22	=22	=22	=22	=22	=22	=22
2.ryy	.	2.a/yy	.	4ff#\	.	2.r	.	2.r	.	2.r	.
.	.	.	.	8ff#\L	.	.	.	.	.	.	.
.	.	.	.	8ee\	.	.	.	.	.	.	.
.	.	.	.	8ff#\	.	.	.	.	.	.	.
.	.	.	.	8ee\J	.	.	.	.	.	.	.
=23	=23	=23	=23	=23	=23	=23	=23	=23	=23	=23	=23
2.ryy	.	2.g#X/yy	.	8dd\L	.	2.r	.	2.r	.	2.r	.
.	.	.	.	8cc#\	.	.	.	.	.	.	.
.	.	.	.	8dd\	.	.	.	.	.	.	.
.	.	.	.	8cc#\	.	.	.	.	.	.	.
.	.	.	.	8dd\	.	.	.	.	.	.	.
.	.	.	.	8ee\J	.	.	.	.	.	.	.
=24	=24	=24	=24	=24	=24	=24	=24	=24	=24	=24	=24
2.ryy	.	4a/yy	.	4cc#\	.	4r	.	4r	.	4r	.
.	.	4ryy	.	4r	.	4r	.	4r	.	4r	.
!	!	!	!	!	!	!LO:TX:a:i:t=Solo	!	!LO:TX:a:i:t=Solo	!	!LO:TX:a:i:t=Solo.	!
.	.	4ryy	.	4r	.	4A/	.	4a/	.	4a/	.
!	!	!	!	!LO:LB:g=original	!	!	!	!	!	!LO:LB:g=original	!
=25	=25	=25	=25	=25	=25	=25	=25	=25	=25	=25	=25
2.ryy	.	4r	.	4r	.	4d\	.	4f#/	.	4ee\	.
.	.	4r	.	4r	.	4d\	.	4f#/	.	4dd\	.
.	.	4c#/	.	4A/	.	4e\	.	4a/	.	4ee\	.
=26	=26	=26	=26	=26	=26	=26	=26	=26	=26	=26	=26
2.ryy	.	4d/	.	4d/	.	2f#\	.	2dd\	.	2ff#\	.
.	.	4B/	.	4B/	.	.	.	.	.	.	.
.	.	4G/	.	4G/	.	4g\	.	4ee\	.	4gg\	.
!	!	!	!	!	!	!LO:LB:g=original	!	!LO:LB:g=original	!	!	!
=27	=27	=27	=27	=27	=27	=27	=27	=27	=27	=27	=27
2.ryy	.	4A/	.	4A/	.	4e\	.	4cc#\	.	4ee\	.
.	.	4a/	.	4a/	.	4e\	.	4cc#\	.	4ee\	.
.	.	4a/	.	4a/	.	4e\	.	4cc#\	.	4ee\	.
!	!	!LO:LB:g=original	!	!	!	!	!	!	!	!	!
=28	=28	=28	=28	=28	=28	=28	=28	=28	=28	=28	=28
2.ryy	.	8a/L	.	8a/L	.	4e\	.	4cc#\	.	4ee\	.
.	.	8b/	.	8b/	.	.	.	.	.	.	.
.	.	8a/	.	8a/	.	4r	.	4r	.	4r	.
.	.	8g/	.	8g/	.	.	.	.	.	.	.
.	.	8f#/	.	8f#/	.	4A/	.	4a/	.	4a/	.
.	.	8e/J	.	8e/J	.	.	.	.	.	.	.
=29	=29	=29	=29	=29	=29	=29	=29	=29	=29	=29	=29
2.ryy	.	4d/	.	4d/	.	4d\	.	4f#/	.	4dd\	.
.	.	4r	.	4r	.	4d\	.	4f#/	.	4dd\	.
.	.	4A/	.	4A/	.	4e\	.	4a/	.	4ee\	.
=30	=30	=30	=30	=30	=30	=30	=30	=30	=30	=30	=30
2.ryy	.	4d/	.	4d/	.	2f#\	.	2dd\	.	2ff#\	.
.	.	4B/	.	4B/	.	.	.	.	.	.	.
.	.	4G/	.	4G/	.	4g\	.	4ee\	.	4gg\	.
=31	=31	=31	=31	=31	=31	=31	=31	=31	=31	=31	=31
2.ryy	.	4A/	.	4A/	.	4e\	.	4cc#\	.	4ee\	.
.	.	4a/	.	4a/	.	4e\	.	4cc#\	.	4ee\	.
.	.	4a/	.	4a/	.	4e\	.	4cc#\	.	4ee\	.
=32	=32	=32	=32	=32	=32	=32	=32	=32	=32	=32	=32
2.ryy	.	8a/L	.	8a/L	.	4e\	.	2cc#\	.	2ee\	.
.	.	8b/	.	8b/	.	.	.	.	.	.	.
.	.	8a/	.	8a/	.	4r	.	.	.	.	.
.	.	8g/	.	8g/	.	.	.	.	.	.	.
.	.	8f#/	.	8f#/	.	4r	.	8dd\L	.	8ff#\L	.
.	.	8e/J	.	8e/J	.	.	.	8ee\J	.	8gg\J	.
=33	=33	=33	=33	=33	=33	=33	=33	=33	=33	=33	=33
!	!	!	!	!	!	!LO:TX:a:t=9	!	!	!	!	!
2.ryy	.	4d/	.	8d/L	.	2.r	.	2ff#\	.	2aa\	.
.	.	.	.	8f#/J	.	.	.	.	.	.	.
.	.	4f#/	.	4a/	.	.	.	.	.	.	.
.	.	4f#X/	.	4f#X/	.	.	.	4ee#X\	.	4gg#X\	.
!	!	!	!	!LO:LB:g=original	!	!	!	!	!	!LO:LB:g=original	!
=34	=34	=34	=34	=34	=34	=34	=34	=34	=34	=34	=34
2.ryy	.	(4f#/	.	(4a/	.	2.r	.	(4ff#\	.	(4aa\	.
.	.	4d/)	.	4f#/)	.	.	.	4ee\)	.	4gg\)	.
.	.	4d`/	.	4f#`/	.	.	.	4dd'\	.	4ff#`\	.
=35	=35	=35	=35	=35	=35	=35	=35	=35	=35	=35	=35
2.ryy	.	(4e/	.	(4g/	.	2.r	.	4ee\	.	4ggn\	.
.	.	4c#/)	.	4e/)	.	.	.	4cc#\	.	4ee\	.
.	.	4c#`/	.	4e`/	.	.	.	4cc#\	.	4ee\	.
!	!	!	!	!	!	!	!	!LO:LB:g=original	!	!	!
=36	=36	=36	=36	=36	=36	=36	=36	=36	=36	=36	=36
2.ryy	.	8A/L	.	8c#/L	.	2.r	.	8a/L	.	8cc#\L	.
.	.	8B/	.	8d/	.	.	.	8b/	.	8dd\	.
.	.	8c#/	.	8e/	.	.	.	8cc#/	.	8ee\	.
.	.	8d/	.	8f#/	.	.	.	8dd/	.	8ff#\	.
.	.	8e/	.	8g/	.	.	.	8ee/	.	8gg\	.
.	.	8c#/J	.	8e/J	.	.	.	8cc#/J	.	8ee\J	.
!	!	!LO:LB:g=original	!	!	!	!	!	!	!	!	!
=37	=37	=37	=37	=37	=37	=37	=37	=37	=37	=37	=37
2.ryy	.	4d/	.	4f#/	.	2.r	.	4dd\	.	4ff#\	.
.	.	4f#/	.	4a/	.	.	.	4ff#\	.	4aa\	.
.	.	4f#/	.	4a/	.	.	.	4ff#\	.	4aa\	.
=38	=38	=38	=38	=38	=38	=38	=38	=38	=38	=38	=38
2.ryy	.	4d/	.	4f#/	.	2.r	.	4dd\	.	4ff#\	.
.	.	4d/	.	4f#/	.	.	.	4dd\	.	4ff#\	.
.	.	4d/	.	4f#/	.	.	.	4dd\	.	4ff#\	.
=39	=39	=39	=39	=39	=39	=39	=39	=39	=39	=39	=39
2.ryy	.	4e/	.	4g/	.	2.r	.	4ee\	.	4gg\	.
.	.	4e/	.	4g/	.	.	.	4ee\	.	4gg\	.
.	.	4e/	.	4g/	.	.	.	4ee\	.	4gg\	.
=40	=40	=40	=40	=40	=40	=40	=40	=40	=40	=40	=40
2.ryy	.	4c#/	.	4e/	.	2.r	.	4cc#\	.	4ee\	.
.	.	4c#/	.	4e/	.	.	.	4cc#\	.	4ee\	.
.	.	4c#/	.	4e/	.	.	.	4cc#\	.	4ee\	.
=41	=41	=41	=41	=41	=41	=41	=41	=41	=41	=41	=41
!	!	!LO:TX:a:t=1	!	!LO:TX:a:t=1	!	!	!	!LO:TX:a:t=2	!	!LO:TX:a:t=2	!
2.ryy	.	2.r	.	2.r	.	2.r	.	2.r	.	2.r	.
=42	=42	=42	=42	=42	=42	=42	=42	=42	=42	=42	=42
2.ryy	.	4r	.	4r	.	4r	.	2.r	.	2.r	.
.	.	4r	.	4r	.	4r	.	.	.	.	.
!	!	!LO:TX:a:t=to&colon;	!	!	!	!LO:DY:t=f.	!	!	!	!	!
.	.	4a/	.	4a/	.	4A/	f	.	.	.	.
!	!	!	!	!LO:LB:g=original	!	!	!	!	!	!	!
=43	=43	=43	=43	=43	=43	=43	=43	=43	=43	=43	=43
*	*	*tremolo	*	*	*	*	*	*	*	*	*
!	!	!	!LO:DY:a:t=for	!	!	!	!	!	!	!	!LO:DY:t=f.
!	!	!	!	!	!	!	!	!	!LO:DY:t=f.	!	!
2.ryy	.	8f#/L 8a	f	4dd\	.	4d\	.	2dd\	f	2ff#\	f
.	.	8f#/ 8a	.	.	.	.	.	.	.	.	.
.	.	8f#/ 8a	.	4dd\	.	4d\	.	.	.	.	.
.	.	8f#/J 8a	.	.	.	.	.	.	.	.	.
*	*	*Xtremolo	*	*	*	*	*	*	*	*	*
.	.	8e/L 8a	.	4ee\	.	4e\	.	4cc#\	.	4ee\	.
.	.	8e/J 8a	.	.	.	.	.	.	.	.	.
!	!	!	!	!	!	!LO:LB:g=original	!	!	!	!	!
=44	=44	=44	=44	=44	=44	=44	=44	=44	=44	=44	=44
*	*	*tremolo	*	*	*	*	*	*	*	*	*
2.ryy	.	8f#/L 8a	.	2ff#\	.	2f#\	.	2dd\	.	2ff#\	.
.	.	8f#/J 8a	.	.	.	.	.	.	.	.	.
*	*	*Xtremolo	*	*	*	*	*	*	*	*	*
*	*	*tremolo	*	*	*	*	*	*	*	*	*
.	.	8dd\L	.	.	.	.	.	.	.	.	.
.	.	8dd\J	.	.	.	.	.	.	.	.	.
*	*	*Xtremolo	*	*	*	*	*	*	*	*	*
*	*	*tremolo	*	*	*	*	*	*	*	*	*
.	.	8ee\L	.	4gg\	.	4g\	.	4ee\	.	4gg\	.
.	.	8ee\J	.	.	.	.	.	.	.	.	.
*	*	*Xtremolo	*	*	*	*	*	*	*	*	*
!	!	!	!	!	!	!	!	!	!	!LO:LB:g=original	!
=45	=45	=45	=45	=45	=45	=45	=45	=45	=45	=45	=45
*	*	*tremolo	*	*	*	*	*	*	*	*	*
2.ryy	.	8e/L 8cc#	.	4ee\	.	4e\	.	4cc#\	.	4ee\	.
.	.	8e/ 8cc#	.	.	.	.	.	.	.	.	.
.	.	8e/ 8cc#	.	4ee\	.	4e\	.	4cc#\	.	4ee\	.
.	.	8e/ 8cc#	.	.	.	.	.	.	.	.	.
.	.	8e/ 8cc#	.	4ee\	.	4e\	.	4cc#\	.	4ee\	.
.	.	8e/J 8cc#	.	.	.	.	.	.	.	.	.
*	*	*Xtremolo	*	*	*	*	*	*	*	*	*
!	!	!	!	!	!	!	!	!LO:LB:g=original	!	!	!
=46	=46	=46	=46	=46	=46	=46	=46	=46	=46	=46	=46
*	*	*tremolo	*	*	*	*	*	*	*	*	*
*	*	*tremolo	*	*	*	*	*	*	*	*	*
*	*	*^	*	*	*	*	*	*	*	*	*
2.ryy	.	8a/L	8g\L	.	8ee\L	.	2e\	.	4cc#\	.	4ee\	.
.	.	8a/	8g\	.	8ff#\	.	.	.	.	.	.	.
.	.	8a/	8g\	.	8gg\	.	.	.	4ee\	.	4gg\	.
.	.	8a/	8g\	.	8ff#\	.	.	.	.	.	.	.
.	.	8a/	8g\	.	8gg\	.	4A/	.	4cc#\	.	4ee\	.
.	.	8a/J	8g\J	.	8ee\J	.	.	.	.	.	.	.
*	*	*v	*v	*	*	*	*	*	*	*	*	*
*	*	*Xtremolo	*	*	*	*	*	*	*	*	*
*	*	*Xtremolo	*	*	*	*	*	*	*	*	*
!	!	!LO:LB:g=original	!	!	!	!	!	!	!	!	!
=47	=47	=47	=47	=47	=47	=47	=47	=47	=47	=47	=47
*	*	*tremolo	*	*	*	*	*	*	*	*	*
*	*	*tremolo	*	*	*	*	*	*	*	*	*
*	*	*^	*	*	*	*	*	*	*	*	*
2.ryy	.	8a/L	8f#\L	.	4dd\	.	4d\	.	2dd\	.	2ff#\	.
.	.	8a/	8f#\	.	.	.	.	.	.	.	.	.
.	.	8a/	8f#\	.	4dd\	.	4d\	.	.	.	.	.
.	.	8a/J	8f#\J	.	.	.	.	.	.	.	.	.
*	*	*v	*v	*	*	*	*	*	*	*	*	*
*	*	*Xtremolo	*	*	*	*	*	*	*	*	*
*	*	*Xtremolo	*	*	*	*	*	*	*	*	*
*	*	*^	*	*	*	*	*	*	*	*	*
.	.	8a/L	8e\L	.	4ee\	.	4e\	.	4cc#\	.	4ee\	.
.	.	8a/J	8e\J	.	.	.	.	.	.	.	.	.
*	*	*v	*v	*	*	*	*	*	*	*	*	*
=48	=48	=48	=48	=48	=48	=48	=48	=48	=48	=48	=48
*	*	*tremolo	*	*	*	*	*	*	*	*	*
*	*	*tremolo	*	*	*	*	*	*	*	*	*
*	*	*^	*	*	*	*	*	*	*	*	*
2.ryy	.	8a/L	8f#\L	.	2ff#\	.	2f#\	.	2dd\	.	2ff#\	.
.	.	8a/J	8f#\J	.	.	.	.	.	.	.	.	.
*	*	*v	*v	*	*	*	*	*	*	*	*	*
*	*	*Xtremolo	*	*	*	*	*	*	*	*	*
*	*	*Xtremolo	*	*	*	*	*	*	*	*	*
*	*	*tremolo	*	*	*	*	*	*	*	*	*
*	*	*^	*	*	*	*	*	*	*	*	*
.	.	8dd\L	4ryy	.	.	.	.	.	.	.	.	.
.	.	8dd\J	.	.	.	.	.	.	.	.	.	.
*	*	*v	*v	*	*	*	*	*	*	*	*	*
*	*	*Xtremolo	*	*	*	*	*	*	*	*	*
*	*	*tremolo	*	*	*	*	*	*	*	*	*
*	*	*^	*	*	*	*	*	*	*	*	*
.	.	8ee\L	8ryy	.	4gg\	.	4g\	.	4ee\	.	4gg\	.
.	.	8ee\J	8ryy	.	.	.	.	.	.	.	.	.
*	*	*v	*v	*	*	*	*	*	*	*	*	*
*	*	*Xtremolo	*	*	*	*	*	*	*	*	*
=49	=49	=49	=49	=49	=49	=49	=49	=49	=49	=49	=49
*	*	*tremolo	*	*	*	*	*	*	*	*	*
*	*	*tremolo	*	*	*	*	*	*	*	*	*
*	*	*^	*	*	*	*	*	*	*	*	*
2.ryy	.	8cc#/L	8e\L	.	4ee\	.	4e\	.	4cc#\	.	2ee\	.
.	.	8cc#/	8e\	.	.	.	.	.	.	.	.	.
.	.	8cc#/	8e\	.	4ee\	.	4e\	.	4cc#\	.	.	.
.	.	8cc#/	8e\	.	.	.	.	.	.	.	.	.
.	.	8cc#/	8e\	.	4ee\	.	4e\	.	4cc#\	.	4aa\	.
.	.	8cc#/J	8e\J	.	.	.	.	.	.	.	.	.
*	*	*v	*v	*	*	*	*	*	*	*	*	*
*	*	*Xtremolo	*	*	*	*	*	*	*	*	*
*	*	*Xtremolo	*	*	*	*	*	*	*	*	*
=50	=50	=50	=50	=50	=50	=50	=50	=50	=50	=50	=50
*	*	*tremolo	*	*	*	*	*	*	*	*	*
*	*	*tremolo	*	*	*	*	*	*	*	*	*
*	*	*^	*	*	*	*	*	*	*	*	*
2.ryy	.	8cc#/L	8e\L	.	8ee\L	.	2.e\	.	2cc#\	.	2ee\	.
.	.	8cc#/J	8e\J	.	8ff#\	.	.	.	.	.	.	.
*	*	*v	*v	*	*	*	*	*	*	*	*	*
*	*	*Xtremolo	*	*	*	*	*	*	*	*	*
*	*	*Xtremolo	*	*	*	*	*	*	*	*	*
*	*	*tremolo	*	*	*	*	*	*	*	*	*
*	*	*tremolo	*	*	*	*	*	*	*	*	*
*	*	*^	*	*	*	*	*	*	*	*	*
.	.	8b/L	8e\L	.	8gg\	.	.	.	.	.	.	.
.	.	8b/	8e\	.	8ff#\	.	.	.	.	.	.	.
.	.	8b/	8e\	.	8gg\	.	.	.	4cc#\	.	4aa\	.
.	.	8b/J	8e\J	.	8aa\J	.	.	.	.	.	.	.
*	*	*v	*v	*	*	*	*	*	*	*	*	*
*	*	*Xtremolo	*	*	*	*	*	*	*	*	*
*	*	*Xtremolo	*	*	*	*	*	*	*	*	*
=51	=51	=51	=51	=51	=51	=51	=51	=51	=51	=51	=51
*	*	*tremolo	*	*	*	*	*	*	*	*	*
*	*	*tremolo	*	*	*	*	*	*	*	*	*
*	*	*^	*	*	*	*	*	*	*	*	*
2.ryy	.	8b/L	8f#\L	.	4ff#\	.	4f#\	.	2a/	.	2.ff#\	.
.	.	8b/	8f#\	.	.	.	.	.	.	.	.	.
.	.	8b/	8f#\	.	4ff#\	.	4f#\	.	.	.	.	.
.	.	8b/J	8f#\J	.	.	.	.	.	.	.	.	.
*	*	*v	*v	*	*	*	*	*	*	*	*	*
*	*	*Xtremolo	*	*	*	*	*	*	*	*	*
*	*	*Xtremolo	*	*	*	*	*	*	*	*	*
.	.	8f#/L 8b	.	4bb\	.	4f#\	.	4cc#/	.	.	.
.	.	8f#/J 8b	.	.	.	.	.	.	.	.	.
!	!	!	!	!LO:LB:g=original	!	!	!	!	!	!	!
=52	=52	=52	=52	=52	=52	=52	=52	=52	=52	=52	=52
*	*	*tremolo	*	*	*	*	*	*	*	*	*
*	*	*tremolo	*	*	*	*	*	*	*	*	*
*	*	*^	*	*	*	*	*	*	*	*	*
2.ryy	.	8b/L	8g#X\L	.	8gg#X\L	.	2.e\	.	2.ee\	.	2.gg#X\	.
.	.	8b/	8g#\	.	8ff#\	.	.	.	.	.	.	.
.	.	8b/	8g#\	.	8gg#\	.	.	.	.	.	.	.
.	.	8b/	8g#\	.	8ee\	.	.	.	.	.	.	.
.	.	8b/	8g#\	.	8ff#\	.	.	.	.	.	.	.
.	.	8b/J	8g#\J	.	8gg#\J	.	.	.	.	.	.	.
*	*	*v	*v	*	*	*	*	*	*	*	*	*
*	*	*Xtremolo	*	*	*	*	*	*	*	*	*
*	*	*Xtremolo	*	*	*	*	*	*	*	*	*
=53	=53	=53	=53	=53	=53	=53	=53	=53	=53	=53	=53
2.ryy	.	8b/L	.	8aa\L	.	4e\	.	4ee\	.	4aa\	.
.	.	8e/	.	8ee\	.	.	.	.	.	.	.
.	.	8f#/	.	8ff#\	.	4r	.	4r	.	4r	.
.	.	8g#X/	.	8gg#X\	.	.	.	.	.	.	.
.	.	8a/	.	8aa\	.	4e\	.	4b\	.	4ee\	.
.	.	8b/J	.	8bb\J	.	.	.	.	.	.	.
!	!	!LO:LB:g=original	!	!	!	!	!	!	!	!LO:LB:g=original	!
=54	=54	=54	=54	=54	=54	=54	=54	=54	=54	=54	=54
!	!	!LO:TX:t=P:problem=mixed beam	!	!	!	!	!	!	!	!	!
2.ryy	.	8cc#\L	.	8ccc#\L	.	4e\	.	4cc#\	.	4ee\	.
.	.	8e\	.	8ee\	.	.	.	.	.	.	.
.	.	8f#\	.	8ff#\	.	4r	.	4r	.	4r	.
.	.	8g#X\	.	8gg#X\	.	.	.	.	.	.	.
.	.	8a\	.	8aa\	.	4e\	.	4cc#\	.	4ee\	.
.	.	8b\J	.	8bb\J	.	.	.	.	.	.	.
!	!	!	!	!	!	!LO:LB:g=original	!	!LO:LB:g=original	!	!	!
=55	=55	=55	=55	=55	=55	=55	=55	=55	=55	=55	=55
2.ryy	.	8cc#\L	.	8ccc#\L	.	4e\	.	4cc#\	.	4ee\	.
.	.	8g#X\	.	8gg#X\	.	.	.	.	.	.	.
.	.	8a\	.	8ccc#\	.	4e\	.	8r	.	4ee\	.
.	.	8b\	.	8bb\	.	.	.	8b\L	.	.	.
.	.	8cc#\	.	8ccc#\	.	4e\	.	8cc#\	.	4ee\	.
.	.	8dd\J	.	8ddd\J	.	.	.	8dd\J	.	.	.
=56	=56	=56	=56	=56	=56	=56	=56	=56	=56	=56	=56
2.ryy	.	8cc#\L	.	8ccc#\L	.	4e\	.	4cc#\	.	4ee\	.
.	.	8g#X\	.	8gg#X\	.	.	.	.	.	.	.
.	.	8a\	.	8aa\	.	4e\	.	8r	.	4ee\	.
.	.	8b\	.	8bb\	.	.	.	8b\L	.	.	.
.	.	8cc#\	.	8ccc#\	.	4e\	.	8cc#\	.	4ee\	.
.	.	8b\J	.	8ddd\J	.	.	.	8dd\J	.	.	.
=57	=57	=57	=57	=57	=57	=57	=57	=57	=57	=57	=57
*	*	*tremolo	*	*	*	*	*	*	*	*	*
2.ryy	.	8cc#\L	.	4ccc#\	.	2e\	.	2cc#\	.	4ee\	.
.	.	8cc#\J	.	.	.	.	.	.	.	.	.
*	*	*Xtremolo	*	*	*	*	*	*	*	*	*
*	*	*tremolo	*	*	*	*	*	*	*	*	*
.	.	8ee\L	.	4ccc#\	.	.	.	.	.	4ee\	.
.	.	8ee\J	.	.	.	.	.	.	.	.	.
*	*	*Xtremolo	*	*	*	*	*	*	*	*	*
*	*	*tremolo	*	*	*	*	*	*	*	*	*
.	.	8a/L	.	4ddd\	.	4r	.	4dd\	.	4aa\	.
.	.	8a/J	.	.	.	.	.	.	.	.	.
*	*	*Xtremolo	*	*	*	*	*	*	*	*	*
!	!	!	!	!LO:LB:g=original	!	!	!	!	!	!	!
=58	=58	=58	=58	=58	=58	=58	=58	=58	=58	=58	=58
*	*	*tremolo	*	*	*	*	*	*	*	*	*
!	!	!	!	!	!	!LO:TX:a:t=2	!	!	!	!	!
2.ryy	.	8dd\L	.	2bb\	.	2.r	.	2b\	.	2dd\	.
.	.	8dd\	.	.	.	.	.	.	.	.	.
.	.	8dd\	.	.	.	.	.	.	.	.	.
.	.	8dd\J	.	.	.	.	.	.	.	.	.
*	*	*Xtremolo	*	*	*	*	*	*	*	*	*
.	.	4r	.	4ccc#\	.	.	.	4cc#\	.	4gg#X\	.
=59	=59	=59	=59	=59	=59	=59	=59	=59	=59	=59	=59
*	*	*tremolo	*	*	*	*	*	*	*	*	*
2.ryy	.	8cc#\L	.	4aa\	.	2.r	.	4cc#\	.	4aa\	.
.	.	8cc#\	.	.	.	.	.	.	.	.	.
.	.	8cc#\	.	4aa\	.	.	.	4cc#\	.	4aa\	.
.	.	8cc#\J	.	.	.	.	.	.	.	.	.
*	*	*Xtremolo	*	*	*	*	*	*	*	*	*
.	.	8f#/L 8a	.	4bb\	.	.	.	4ff#\	.	4bb\	.
.	.	8f#/J 8a	.	.	.	.	.	.	.	.	.
=60	=60	=60	=60	=60	=60	=60	=60	=60	=60	=60	=60
*	*	*tremolo	*	*	*	*	*	*	*	*	*
2.ryy	.	8b\L	.	8aa\L	.	4e\	.	2b\	.	4gg#X\	.
.	.	8b\	.	8gg#X\	.	.	.	.	.	.	.
.	.	8b\	.	8ff#\	.	4e\	.	.	.	4ee\	.
.	.	8b\	.	8ee\	.	.	.	.	.	.	.
.	.	8b\	.	8ff#\	.	4e\	.	4b\	.	4ee\	.
.	.	8b\J	.	8bb\J	.	.	.	.	.	.	.
*	*	*Xtremolo	*	*	*	*	*	*	*	*	*
!	!	!LO:LB:g=original	!	!	!	!	!	!	!	!	!
=61	=61	=61	=61	=61	=61	=61	=61	=61	=61	=61	=61
2.ryy	.	4cc#\	.	4ccc#\	.	4e\	.	2cc#\	.	2ee\	.
.	.	4cc#\	.	8ccc#\L	.	4e\	.	.	.	.	.
.	.	.	.	8bb\	.	.	.	.	.	.	.
.	.	4a\	.	8ddd\	.	4r	.	4dd\	.	4aa\	.
.	.	.	.	8ccc#\J	.	.	.	.	.	.	.
=62	=62	=62	=62	=62	=62	=62	=62	=62	=62	=62	=62
!	!	!	!	!	!	!LO:TX:a:t=2	!	!	!	!	!
2.ryy	.	4dd\	.	4bb\	.	2.r	.	2b\	.	2dd\	.
.	.	4dd\	.	8bb\L	.	.	.	.	.	.	.
.	.	.	.	8gg#X\	.	.	.	.	.	.	.
.	.	4g#X/	.	8ccc#\	.	.	.	4cc#\	.	4gg#X\	.
.	.	.	.	8bb\J	.	.	.	.	.	.	.
!	!	!	!	!	!	!	!	!	!	!LO:LB:g=original	!
=63	=63	=63	=63	=63	=63	=63	=63	=63	=63	=63	=63
2.ryy	.	4cc#\	.	4aa\	.	2.r	.	2a/	.	2cc#\	.
.	.	4cc#\	.	8aa\L	.	.	.	.	.	.	.
.	.	.	.	8gg#X\	.	.	.	.	.	.	.
.	.	4f#/	.	8aa\	.	.	.	4cc#/	.	4dd#X\	.
.	.	.	.	8bb\J	.	.	.	.	.	.	.
!	!	!	!	!	!	!	!	!LO:LB:g=original	!	!	!
=64	=64	=64	=64	=64	=64	=64	=64	=64	=64	=64	=64
2.ryy	.	4b\	.	(8aa\L	.	4e\	.	4g#X/	.	4ee\	.
.	.	.	.	8gg#X\)	.	.	.	.	.	.	.
.	.	4r	.	8ff#\	.	4r	.	4r	.	4r	.
.	.	.	.	8ee`\	.	.	.	.	.	.	.
.	.	4B/ 4a	.	8dd#X`\	.	4r	.	4ff#\	.	4aa\	.
.	.	.	.	8aa`\J	.	.	.	.	.	.	.
!	!	!	!	!LO:LB:g=original	!	!	!	!	!	!	!
=65	=65	=65	=65	=65	=65	=65	=65	=65	=65	=65	=65
2.ryy	.	4B/ 4g#X	.	(8aa\L	.	4e\	.	4ee\	.	4gg#X\	.
.	.	.	.	8gg#X\)	.	.	.	.	.	.	.
.	.	4r	.	8ff#`\	.	4r	.	4r	.	4r	.
.	.	.	.	8ee`\	.	.	.	.	.	.	.
.	.	4B/ 4a	.	8dd#X`\	.	4r	.	4ff#\	.	4aa\	.
.	.	.	.	8aa\J	.	.	.	.	.	.	.
=66	=66	=66	=66	=66	=66	=66	=66	=66	=66	=66	=66
2.ryy	.	4B/ 4g#X	.	(8aa\L	.	4e\	.	4ee\	.	4gg#X\	.
.	.	.	.	8ggn\	.	.	.	.	.	.	.
.	.	4r	.	8ff#\	.	4r	.	4r	.	4r	.
.	.	.	.	8ee\	.	.	.	.	.	.	.
.	.	4r	.	8dd#X\	.	4r	.	4r	.	4r	.
.	.	.	.	8ee\J)	.	.	.	.	.	.	.
!	!	!	!	!	!	!LO:LB:g=original	!	!	!	!	!
=67	=67	=67	=67	=67	=67	=67	=67	=67	=67	=67	=67
2.ryy	.	4B/ 4g#X	.	(8gg#X\L	.	4d\	.	4g#X/	.	4ee\	.
.	.	.	.	8bb\	.	.	.	.	.	.	.
.	.	4B/ 4g#	.	8ddd#X\	.	4d\	.	4g#/	.	4ee\	.
.	.	.	.	8eee\	.	.	.	.	.	.	.
.	.	4B/ 4g#	.	8ddd#\	.	4d\	.	4g#/	.	4ee\	.
.	.	.	.	8eee\J)	.	.	.	.	.	.	.
=68	=68	=68	=68	=68	=68	=68	=68	=68	=68	=68	=68
!	!	!	!LO:DY:a	!	!	!	!	!	!	!	!
!	!	!	!LO:DY:t=p.	!	!	!	!	!	!	!	!
2.ryy	.	8c#/L 8g#X	p	4ee\	.	4e\	.	4g/	.	4ee\	.
.	.	8e/	.	.	.	.	.	.	.	.	.
.	.	8e/	.	4r	.	4r	.	4r	.	4r	.
.	.	8e/	.	.	.	.	.	.	.	.	.
.	.	8e/	.	4r	.	4r	.	4r	.	4r	.
.	.	8e/J	.	.	.	.	.	.	.	.	.
!	!	!LO:LB:g=original	!	!	!	!	!	!	!	!	!
=69	=69	=69||:	=69	=69	=69	=69	=69	=69	=69	=69	=69
*	*	*tremolo	*	*	*	*	*	*	*	*	*
!	!	!	!	!	!	!LO:TX:a:t=33	!	!LO:TX:a:t=ſolo	!	!LO:TX:a:t=ſolo werte	!
2.ryy	.	8e/L	.	4r	.	2.r	.	4r	.	4r	.
.	.	8e/	.	.	.	.	.	.	.	.	.
.	.	8e/	.	4r	.	.	.	4r	.	4r	.
.	.	8e/	.	.	.	.	.	.	.	.	.
!	!	!	!	!	!LO:DY:a	!	!	!	!	!LO:LB:g=original	!
.	.	8e/	.	8e/L	p	.	.	8cc#\L	.	8ee\L	.
.	.	8e/J	.	8d/J	.	.	.	8b\J	.	8dd\J	.
*	*	*Xtremolo	*	*	*	*	*	*	*	*	*
=70	=70	=70	=70	=70	=70	=70	=70	=70	=70	=70	=70
*	*	*tremolo	*	*	*	*	*	*	*	*	*
2.ryy	.	8e/L	.	4c#/	.	2.r	.	4a/	.	4cc#\	.
.	.	8e/	.	.	.	.	.	.	.	.	.
.	.	8e/	.	4c#/	.	.	.	4a/	.	4cc#\	.
.	.	8e/	.	.	.	.	.	.	.	.	.
!	!	!	!	!	!	!	!	!LO:TX:a:t=h	!	!	!
.	.	8e/	.	4d/	.	.	.	4b/	.	4dd\	.
.	.	8e/J	.	.	.	.	.	.	.	.	.
*	*	*Xtremolo	*	*	*	*	*	*	*	*	*
=71	=71	=71	=71	=71	=71	=71	=71	=71	=71	=71	=71
*	*	*tremolo	*	*	*	*	*	*	*	*	*
2.ryy	.	8e/L	.	2e/	.	2.r	.	2cc#\	.	2ee\	.
.	.	8e/	.	.	.	.	.	.	.	.	.
.	.	8e/	.	.	.	.	.	.	.	.	.
.	.	8e/	.	.	.	.	.	.	.	.	.
.	.	8e/	.	4f#/	.	.	.	4dd\	.	4ff#\	.
.	.	8e/J	.	.	.	.	.	.	.	.	.
*	*	*Xtremolo	*	*	*	*	*	*	*	*	*
!	!	!	!	!LO:LB:g=original	!	!	!	!	!	!	!
=72	=72	=72	=72	=72	=72	=72	=72	=72	=72	=72	=72
*	*	*tremolo	*	*	*	*	*	*	*	*	*
!	!	!	!	!	!	!	!	!LO:TX:a:t=t	!	!LO:TX:a:t=t	!
2.ryy	.	8e/L	.	4d/	.	2.r	.	4b\	.	4dd\	.
.	.	8e/	.	.	.	.	.	.	.	.	.
.	.	8e/	.	4d/	.	.	.	4b\	.	4dd\	.
.	.	8e/	.	.	.	.	.	.	.	.	.
.	.	8e/	.	4d/	.	.	.	4b\	.	4dd\	.
.	.	8e/J	.	.	.	.	.	.	.	.	.
*	*	*Xtremolo	*	*	*	*	*	*	*	*	*
!	!	!	!	!	!	!	!	!LO:LB:g=original	!	!	!
=73	=73	=73:||	=73	=73	=73	=73	=73	=73	=73	=73	=73
*	*	*tremolo	*	*	*	*	*	*	*	*	*
!	!	!LO:TX:t=P:problem=Takty 73-76 zapisane repetycją	!	!	!	!	!	!	!	!	!
2.ryy	.	8e/Lyy	.	4d/	.	2.r	.	4b/	.	4dd\	.
.	.	8e/yy	.	.	.	.	.	.	.	.	.
.	.	8e/yy	.	4r	.	.	.	4r	.	4r	.
.	.	8e/yy	.	.	.	.	.	.	.	.	.
.	.	8e/yy	.	8d/L	.	.	.	8b/L	.	8dd\L	.
.	.	8e/Jyy	.	8c#/J	.	.	.	8a/J	.	8cc#\J	.
*	*	*Xtremolo	*	*	*	*	*	*	*	*	*
=74	=74	=74	=74	=74	=74	=74	=74	=74	=74	=74	=74
*	*	*tremolo	*	*	*	*	*	*	*	*	*
2.ryy	.	8e/Lyy	.	4B/	.	2.r	.	4g#X/	.	4b\	.
.	.	8e/yy	.	.	.	.	.	.	.	.	.
.	.	8e/yy	.	4B/	.	.	.	4g#/	.	4b\	.
.	.	8e/yy	.	.	.	.	.	.	.	.	.
.	.	8e/yy	.	4c#/	.	.	.	4a/	.	4cc#\	.
.	.	8e/Jyy	.	.	.	.	.	.	.	.	.
*	*	*Xtremolo	*	*	*	*	*	*	*	*	*
=75	=75	=75	=75	=75	=75	=75	=75	=75	=75	=75	=75
*	*	*tremolo	*	*	*	*	*	*	*	*	*
2.ryy	.	8e/Lyy	.	2d/	.	2.r	.	2b\	.	2dd\	.
.	.	8e/yy	.	.	.	.	.	.	.	.	.
.	.	8e/yy	.	.	.	.	.	.	.	.	.
.	.	8e/yy	.	.	.	.	.	.	.	.	.
.	.	8e/yy	.	4e/	.	.	.	4g#X/	.	4ee\	.
.	.	8e/Jyy	.	.	.	.	.	.	.	.	.
*	*	*Xtremolo	*	*	*	*	*	*	*	*	*
=76	=76	=76	=76	=76	=76	=76	=76	=76	=76	=76	=76
*	*	*tremolo	*	*	*	*	*	*	*	*	*
.	.	.	.	.	.	.	.	8qb/	.	8qdd/	.
2.ryy	.	8e/Lyy	.	4c#/	.	2.r	.	4a/	.	4cc#\	.
.	.	8e/yy	.	.	.	.	.	.	.	.	.
.	.	8e/yy	.	4c#/	.	.	.	4a/	.	4cc#\	.
.	.	8e/yy	.	.	.	.	.	.	.	.	.
.	.	8e/yy	.	4c#/	.	.	.	4a/	.	4cc#\	.
.	.	8e/Jyy	.	.	.	.	.	.	.	.	.
*	*	*Xtremolo	*	*	*	*	*	*	*	*	*
=77	=77	=77	=77	=77	=77	=77	=77	=77	=77	=77	=77
*	*	*tremolo	*	*	*	*	*	*	*	*	*
2.ryy	.	8e/L	.	4c#/	.	2.r	.	4a/	.	4cc#\	.
.	.	8e/	.	.	.	.	.	.	.	.	.
.	.	8e/	.	4r	.	.	.	4r	.	4r	.
.	.	8e/	.	.	.	.	.	.	.	.	.
.	.	8e/	.	4r	.	.	.	4r	.	4r	.
.	.	8e/J	.	.	.	.	.	.	.	.	.
*	*	*Xtremolo	*	*	*	*	*	*	*	*	*
=78	=78	=78	=78	=78	=78	=78	=78	=78	=78	=78	=78
*	*	*tremolo	*	*	*	*	*	*	*	*	*
2.ryy	.	8e/L	.	4c#/	.	2.r	.	4a/	.	4cc#\	.
.	.	8e/	.	.	.	.	.	.	.	.	.
.	.	8e/	.	4c#/	.	.	.	4a/	.	4dd\	.
.	.	8e/	.	.	.	.	.	.	.	.	.
.	.	8e/	.	4d/	.	.	.	4b/	.	4ee\	.
.	.	8e/J	.	.	.	.	.	.	.	.	.
*	*	*Xtremolo	*	*	*	*	*	*	*	*	*
=79	=79	=79	=79	=79	=79	=79	=79	=79	=79	=79	=79
*	*	*tremolo	*	*	*	*	*	*	*	*	*
2.ryy	.	8e/L	.	2B/	.	2.r	.	2g#X/	.	2b\	.
.	.	8e/	.	.	.	.	.	.	.	.	.
.	.	8e/	.	.	.	.	.	.	.	.	.
.	.	8e/	.	.	.	.	.	.	.	.	.
.	.	8e/	.	4e/	.	.	.	4a/	.	4ee\	.
.	.	8e/J	.	.	.	.	.	.	.	.	.
*	*	*Xtremolo	*	*	*	*	*	*	*	*	*
!	!	!	!	!	!	!	!	!	!	!LO:LB:g=original	!
=80	=80	=80	=80	=80	=80	=80	=80	=80	=80	=80	=80
*	*	*tremolo	*	*	*	*	*	*	*	*	*
2.ryy	.	8e/L	.	4c#/	.	2.r	.	4a/	.	4cc#\	.
.	.	8e/	.	.	.	.	.	.	.	.	.
.	.	8e/	.	(4c#/	.	.	.	4a/	.	4cc#\	.
.	.	8e/	.	.	.	.	.	.	.	.	.
.	.	8e/	.	4d/)	.	.	.	4b/	.	4dd\	.
.	.	8e/J	.	.	.	.	.	.	.	.	.
*	*	*Xtremolo	*	*	*	*	*	*	*	*	*
=81	=81	=81	=81	=81	=81	=81	=81	=81	=81	=81	=81
*	*	*tremolo	*	*	*	*	*	*	*	*	*
2.ryy	.	8e/L	.	2B/	.	2.r	.	2g#X/	.	2cc#\	.
.	.	8e/	.	.	.	.	.	.	.	.	.
.	.	8e/	.	.	.	.	.	.	.	.	.
.	.	8e/	.	.	.	.	.	.	.	.	.
.	.	8e/	.	4e/	.	.	.	4a/	.	4ee\	.
.	.	8e/J	.	.	.	.	.	.	.	.	.
*	*	*Xtremolo	*	*	*	*	*	*	*	*	*
!	!	!	!	!LO:LB:g=original	!	!	!	!	!	!	!
!	!	!	!	!	!	!	!	!LO:LB:g=original	!	!	!
=82	=82	=82	=82	=82	=82	=82	=82	=82	=82	=82	=82
2.ryy	.	4A/	.	4c#/	.	2.r	.	(4a/	.	4f#\ 4cc#	.
.	.	4B/	.	4d/	.	.	.	4b/)	.	4g\ 4dd	.
.	.	4c#/	.	4e/	.	.	.	4cc#'/	.	4b\ 4ee	.
=83	=83	=83	=83	=83	=83	=83	=83	=83	=83	=83	=83
4d\	.	4c#/	.	(4e#X/	.	2.r	.	(4cc#\	.	4ee#X\	.
4r	.	4d/	.	4f#/)	.	.	.	4dd\)	.	4ff#\	.
4r	.	4d/	.	4f#/	.	.	.	4dd'\	.	4ff#\	.
=84	=84	=84	=84	=84	=84	=84	=84	=84	=84	=84	=84
4c#\	.	4c#/	.	(4en/	.	2.r	.	4cc#\	.	4een\	.
4d\	.	4B/	.	4d/	.	.	.	4b\	.	4dd\	.
4c#\	.	4A/	.	4c#/)	.	.	.	4a\	.	4cc#\	.
=85	=85	=85	=85	=85	=85	=85	=85	=85	=85	=85	=85
4e\	.	4G#X/	.	4c#/	.	2.r	.	4g#X/	.	4b\	.
8E\L	.	4r	.	4r	.	.	.	4r	.	4r	.
8D\	.	.	.	.	.	.	.	.	.	.	.
!	!	!LO:LB:g=original	!	!	!	!	!	!	!	!	!
8C#\	.	4e/	.	4e/	.	.	.	4r	.	4r	.
8BB\J	.	.	.	.	.	.	.	.	.	.	.
=86	=86	=86	=86	=86	=86	=86	=86	=86	=86	=86	=86
!	!	!	!	!	!	!	!	!LO:TX:a:t=16	!	!LO:TX:a:t=16	!
4AA/	.	8c#/L	.	4a\	.	2.r	.	2.r	.	2.r	.
.	.	8e/	.	.	.	.	.	.	.	.	.
4A\	.	8c#/	.	4a\	.	.	.	.	.	.	.
.	.	8e/	.	.	.	.	.	.	.	.	.
4B\	.	8B/	.	4b\	.	.	.	.	.	.	.
.	.	8e/J	.	.	.	.	.	.	.	.	.
=87	=87	=87	=87	=87	=87	=87	=87	=87	=87	=87	=87
2c#\	.	8c#/L	.	2cc#\	.	2.r	.	2.r	.	2.r	.
.	.	8e/	.	.	.	.	.	.	.	.	.
.	.	8c#/	.	.	.	.	.	.	.	.	.
.	.	8e/	.	.	.	.	.	.	.	.	.
4d\	.	8d/	.	4dd\	.	.	.	.	.	.	.
.	.	8e/J	.	.	.	.	.	.	.	.	.
=88	=88	=88	=88	=88	=88	=88	=88	=88	=88	=88	=88
*	*	*tremolo	*	*	*	*	*	*	*	*	*
4B\	.	8d/L	.	4b\	.	2.r	.	2.r	.	2.r	.
.	.	8e/J	.	.	.	.	.	.	.	.	.
4G#X\	.	8d/L	.	4b\	.	.	.	.	.	.	.
.	.	8e/J	.	.	.	.	.	.	.	.	.
4G#\	.	8d/L	.	4b\	.	.	.	.	.	.	.
.	.	8e/J	.	.	.	.	.	.	.	.	.
=89	=89	=89	=89	=89	=89	=89	=89	=89	=89	=89	=89
*	*	*tremolo	*	*	*	*	*	*	*	*	*
4G#X\	.	8d/L	.	8b\L	.	2.r	.	2.r	.	2.r	.
.	.	8e/J	.	(8ee\	.	.	.	.	.	.	.
4r	.	8d/L	.	8dd#X\	.	.	.	.	.	.	.
.	.	8e/J	.	8ddn\	.	.	.	.	.	.	.
4E\	.	8d/L	.	8cc#\)	.	.	.	.	.	.	.
.	.	8e/J	.	8b\J	.	.	.	.	.	.	.
=90	=90	=90	=90	=90	=90	=90	=90	=90	=90	=90	=90
*	*	*Xtremolo	*	*	*	*	*	*	*	*	*
4A\	.	8c#/L	.	4a/	.	2.r	.	2.r	.	2.r	.
.	.	8e/	.	.	.	.	.	.	.	.	.
4A\	.	8c#/	.	4a/	.	.	.	.	.	.	.
.	.	8e/	.	.	.	.	.	.	.	.	.
4B\	.	8d/	.	4b/	.	.	.	.	.	.	.
.	.	8e/J	.	.	.	.	.	.	.	.	.
=91	=91	=91	=91	=91	=91	=91	=91	=91	=91	=91	=91
2c#\	.	8c#/L	.	2cc#\	.	2.r	.	2.r	.	2.r	.
.	.	8e/	.	.	.	.	.	.	.	.	.
.	.	8c#/	.	.	.	.	.	.	.	.	.
.	.	8e/	.	.	.	.	.	.	.	.	.
4d\	.	8d/	.	4dd\	.	.	.	.	.	.	.
.	.	8e/J	.	.	.	.	.	.	.	.	.
!LO:LB:g=original	!	!	!	!LO:LB:g=original	!	!	!	!	!	!	!
=92	=92	=92	=92	=92	=92	=92	=92	=92	=92	=92	=92
*	*	*tremolo	*	*	*	*	*	*	*	*	*
4G#X\	.	8d/L	.	4b\	.	2.r	.	2.r	.	2.r	.
.	.	8e/J	.	.	.	.	.	.	.	.	.
4G#\	.	8d/L	.	4b\	.	.	.	.	.	.	.
.	.	8e/J	.	.	.	.	.	.	.	.	.
4G#\	.	8d/L	.	4b\	.	.	.	.	.	.	.
.	.	8e/J	.	.	.	.	.	.	.	.	.
=93	=93	=93	=93	=93	=93	=93	=93	=93	=93	=93	=93
4G#X\	.	4.e/	.	8b\L	.	2.r	.	2.r	.	2.r	.
.	.	.	.	8cc#\	.	.	.	.	.	.	.
4r	.	.	.	8dd\	.	.	.	.	.	.	.
.	.	8g/	.	8dd#X\	.	.	.	.	.	.	.
4G#\	.	4B/ 4e	.	8ee\	.	.	.	.	.	.	.
.	.	.	.	8b\J	.	.	.	.	.	.	.
!	!	!LO:LB:g=original	!	!	!	!	!	!	!	!	!
=94	=94	=94	=94	=94	=94	=94	=94	=94	=94	=94	=94
4A\	.	4c#/ 4e	.	8cc#\L	.	2.r	.	2.r	.	2.r	.
.	.	.	.	8b\	.	.	.	.	.	.	.
4r	.	4r	.	8cc#\	.	.	.	.	.	.	.
.	.	.	.	8dd\	.	.	.	.	.	.	.
4G#X\	.	4d/ 4e	.	8ee\	.	.	.	.	.	.	.
.	.	.	.	8b\J	.	.	.	.	.	.	.
=95	=95	=95	=95	=95	=95	=95	=95	=95	=95	=95	=95
4A\	.	4c#/ 4e	.	8cc#\L	.	2.r	.	2.r	.	2.r	.
.	.	.	.	8dd#X\	.	.	.	.	.	.	.
4r	.	4r	.	8ee\	.	.	.	.	.	.	.
.	.	.	.	8dd#\	.	.	.	.	.	.	.
4c#\	.	4e/	.	8ee\	.	.	.	.	.	.	.
.	.	.	.	8a\J	.	.	.	.	.	.	.
=96	=96	=96	=96	=96	=96	=96	=96	=96	=96	=96	=96
.	.	.	.	8qqcc#/	.	.	.	.	.	.	.
4d\	.	4f#/	.	4b\	.	2.r	.	2.r	.	2.r	.
4e\	.	4c#/	.	4a/	.	.	.	.	.	.	.
4E\	.	4d/	.	4g#X/	.	.	.	.	.	.	.
=97	=97	=97	=97	=97	=97	=97	=97	=97	=97	=97	=97
*	*	*Xtremolo	*	*	*	*	*	*	*	*	*
4A\	.	8c#/L	.	4a/	.	2.r	.	2.r	.	2.r	.
.	.	8B/	.	.	.	.	.	.	.	.	.
4r	.	8c#/	.	4r	.	.	.	.	.	.	.
.	.	8d/	.	.	.	.	.	.	.	.	.
4r	.	8e/	.	4r	.	.	.	.	.	.	.
.	.	8d/J	.	.	.	.	.	.	.	.	.
=98||:	=98	=98	=98	=98	=98	=98	=98	=98	=98	=98	=98
2.A\	.	8c#/L	.	2cc#\	.	2.r	.	2.r	.	2.r	.
.	.	8d/	.	.	.	.	.	.	.	.	.
.	.	8e/	.	.	.	.	.	.	.	.	.
.	.	8f#/	.	.	.	.	.	.	.	.	.
.	.	8g/	.	8ee\L	.	.	.	.	.	.	.
.	.	8e/J	.	8cc#\J	.	.	.	.	.	.	.
=99	=99	=99	=99	=99	=99	=99	=99	=99	=99	=99	=99
2.A\	.	8f#/L	.	4dd\	.	2.r	.	2.r	.	2.r	.
.	.	8e/	.	.	.	.	.	.	.	.	.
.	.	8d/	.	4ff#\	.	.	.	.	.	.	.
.	.	8e/	.	.	.	.	.	.	.	.	.
.	.	8f#/	.	4ff#\	.	.	.	.	.	.	.
.	.	8d/J	.	.	.	.	.	.	.	.	.
!	!	!	!	!LO:LB:g=original	!	!	!	!	!	!	!
=100	=100	=100	=100	=100	=100	=100	=100	=100	=100	=100	=100
2.A\	.	8d/L	.	2gg#X\	.	2.r	.	2.r	.	2.r	.
.	.	8c#/	.	.	.	.	.	.	.	.	.
.	.	8d/	.	.	.	.	.	.	.	.	.
.	.	8c#/	.	.	.	.	.	.	.	.	.
.	.	8d/	.	8bb\L	.	.	.	.	.	.	.
.	.	8B/J	.	8gg#\J	.	.	.	.	.	.	.
=101	=101	=101	=101	=101	=101	=101	=101	=101	=101	=101	=101
4A\	.	8c#/L	.	4aa\	.	2.r	.	2.r	.	2.r	.
.	.	8B/	.	.	.	.	.	.	.	.	.
4r	.	8c#/	.	4r	.	.	.	.	.	.	.
.	.	8d/	.	.	.	.	.	.	.	.	.
4r	.	8e/	.	4r	.	.	.	.	.	.	.
.	.	8f#/J	.	.	.	.	.	.	.	.	.
!	!	!LO:LB:g=original	!	!	!	!	!	!	!	!	!
=102:||	=102	=102	=102	=102	=102	=102	=102	=102	=102	=102	=102
!LO:TX:t=P:problem=Takty zapisane repetycją	!	!	!	!	!	!	!	!	!LO:DY:a	!	!LO:DY:a
*	*	*tremolo	*	*	*	*	*	*	*	*	*
2.A\yy	.	(8g/L	.	2aa\	.	2.e\	.	2.ee\	p	2.gg\	p
.	.	8A/	.	.	.	.	.	.	.	.	.
.	.	8g	.	.	.	.	.	.	.	.	.
.	.	8A/	.	.	.	.	.	.	.	.	.
.	.	8g	.	8bb\L	.	.	.	.	.	.	.
.	.	8A/J)	.	8ccc#\J	.	.	.	.	.	.	.
=103	=103	=103	=103	=103	=103	=103	=103	=103	=103	=103	=103
2.A\yy	.	(8f#/L	.	4ddd\	.	2.f#\	.	2.dd\	.	2.ff#\	.
.	.	8A	.	.	.	.	.	.	.	.	.
.	.	8f#	.	4fff#\	.	.	.	.	.	.	.
.	.	8A/	.	.	.	.	.	.	.	.	.
.	.	8f#	.	4fff#\	.	.	.	.	.	.	.
.	.	8A/J)	.	.	.	.	.	.	.	.	.
=104	=104	=104	=104	=104	=104	=104	=104	=104	=104	=104	=104
2.A\yy	.	(8d/L	.	4.gg#X\	.	2.e\	.	2.b/	.	2.dd\	.
.	.	8B/	.	.	.	.	.	.	.	.	.
.	.	8d	.	.	.	.	.	.	.	.	.
.	.	8B/	.	8bb\L	.	.	.	.	.	.	.
.	.	8d	.	8ddd\	.	.	.	.	.	.	.
.	.	8B/J)	.	8bb\J	.	.	.	.	.	.	.
=105	=105	=105	=105	=105	=105	=105	=105	=105	=105	=105	=105
4A\yy	.	4c#/	.	4aa\	.	4e\	.	4a/	.	4cc#\	.
4ryy	.	4r	.	4r	.	4r	.	4r	.	4r	.
4ryy	.	4r	.	4ccc#\	.	4r	.	4r	.	4r	.
!	!	!	!	!	!	!	!	!	!	!LO:LB:g=original	!
=106	=106	=106	=106	=106	=106	=106	=106	=106	=106	=106	=106
!	!	!	!	!	!	!LO:TX:a:t=3	!	!LO:TX:a:t=3	!	!LO:TX:a:t=3	!
2.C#/	.	(2.b/	.	4.ee#X\	.	2.r	.	2.r	.	2.r	.
.	.	.	.	8gg#X\L	.	.	.	.	.	.	.
.	.	.	.	8bb\	.	.	.	.	.	.	.
.	.	.	.	8gg#\J	.	.	.	.	.	.	.
=107	=107	=107	=107	=107	=107	=107	=107	=107	=107	=107	=107
4F#\	.	4a/)	.	4ff#\	.	2.r	.	2.r	.	2.r	.
4r	.	4r	.	4r	.	.	.	.	.	.	.
4r	.	4r	.	4aa\	.	.	.	.	.	.	.
!	!	!	!	!LO:LB:g=original	!	!	!	!	!	!	!
=108	=108	=108	=108	=108	=108	=108	=108	=108	=108	=108	=108
2AA/	.	2.g/	.	4.cc#\	.	2.r	.	2.r	.	2.r	.
.	.	.	.	8ee\L	.	.	.	.	.	.	.
4A\	.	.	.	8ggn\	.	.	.	.	.	.	.
.	.	.	.	8ee\J	.	.	.	.	.	.	.
=109	=109	=109	=109	=109	=109	=109	=109	=109	=109	=109	=109
!	!LO:DY:a	!	!	!LO:TX:a:t=t.	!	!LO:DY:a	!	!	!	!	!
!	!LO:DY:t=for	!	!LO:DY:t=f.	!	!	!	!	!	!	!	!LO:DY:a:t=f.
*	*	*Xtremolo	*	*	*	*	*	*	*	*	*
8d\L	f	8f#/L	f	8ff#\L	.	4f#\	f	2dd\	f	2ff#\	f
8c#\	.	(8e/	.	8ee\	.	.	.	.	.	.	.
8d\	.	8f#/	.	8ff#\	.	4r	.	.	.	.	.
8c#\	.	8e/)	.	8ee\	.	.	.	.	.	.	.
8B\	.	8d'/	.	8dd\	.	4r	.	4r	.	4r	.
8A\J	.	8c#'/J	.	8cc#\J	.	.	.	.	.	.	.
!	!	!	!	!	!	!LO:LB:g=original	!	!	!	!	!
=110	=110	=110	=110	=110	=110	=110	=110	=110	=110	=110	=110
8B\L	.	8d/L	.	8dd\L	.	4d\	.	2.b/	.	2dd\	.
8A\	.	8c#/	.	8cc#\	.	.	.	.	.	.	.
8B\	.	8d/	.	8dd\	.	4r	.	.	.	.	.
8A\	.	8c#/	.	8cc#\	.	.	.	.	.	.	.
8G#X\	.	8B/	.	8b\	.	4r	.	.	.	4r	.
8F#\J	.	8A/J	.	8a\J	.	.	.	.	.	.	.
!	!	!LO:LB:g=original	!	!	!	!	!	!	!	!	!
=111	=111	=111	=111	=111	=111	=111	=111	=111	=111	=111	=111
4E\	.	4B/	.	8g#X/L	.	2.e\	.	2.b/	.	2.dd\	.
.	.	.	.	8b/J	.	.	.	.	.	.	.
4E\	.	4B/ 4e	.	8ee\L	.	.	.	.	.	.	.
.	.	.	.	8gg#X\	.	.	.	.	.	.	.
4G#X\	.	4B/ 4e	.	8bb\	.	.	.	.	.	.	.
.	.	.	.	8dd\J	.	.	.	.	.	.	.
!	!	!	!	!	!	!	!	!LO:LB:g=original	!	!	!
=112	=112	=112	=112	=112	=112	=112	=112	=112	=112	=112	=112
4A\	.	4c#/ 4e	.	8cc#\L	.	2e\	.	4a\	.	4cc#\	.
.	.	.	.	8dd\	.	.	.	.	.	.	.
4A\	.	4c#/ 4e	.	8ee\	.	.	.	4cc#\	.	4ee\	.
.	.	.	.	8ff#\	.	.	.	.	.	.	.
4F#\	.	4cc#\	.	8gg#X\	.	4e\	.	4cc#\	.	4aa\	.
.	.	.	.	8aa\J	.	.	.	.	.	.	.
=113	=113	=113	=113	=113	=113	=113	=113	=113	=113	=113	=113
4D\	.	4ff#\	.	4bb\	.	4f#\	.	4ff#\	.	4bb\	.
4E\	.	4cc#\	.	4aa\	.	4e\	.	4cc#\	.	4aa\	.
4E\	.	4b\	.	4gg#X\	.	4e\	.	4b\	.	4gg#X\	.
!LO:LB:g=original	!	!	!	!	!	!	!	!	!	!	!
=114	=114	=114	=114	=114	=114	=114	=114	=114	=114	=114	=114
8F#\L	.	8a/L	.	8aa\L	.	4a\	.	4cc#\	.	4aa\	.
8E\	.	8g#X/	.	8gg#X\	.	.	.	.	.	.	.
8F#\	.	8a/	.	8aa\	.	4r	.	4cc#\	.	4aa\	.
8E\	.	8g#/	.	8gg#\	.	.	.	.	.	.	.
8D\	.	8f#/	.	8ff#\	.	4r	.	4r	.	4r	.
8C#\J	.	8e/J	.	8ee\J	.	.	.	.	.	.	.
!	!	!	!	!LO:LB:g=original	!	!	!	!	!	!	!
=115	=115	=115	=115	=115	=115	=115	=115	=115	=115	=115	=115
8d\L	.	8f#/L	.	8ff#\L	.	4f#\	.	4a/	.	4ff#\	.
8c#\	.	8e/	.	8ee\	.	.	.	.	.	.	.
8d\	.	8f#/	.	8ff#\	.	4r	.	4a/	.	4ff#\	.
8c#\	.	8e/	.	8ee\	.	.	.	.	.	.	.
8B\	.	8d/	.	8dd\	.	4r	.	4r	.	4r	.
8A\J	.	8c#/J	.	8cc#\J	.	.	.	.	.	.	.
=116	=116	=116	=116	=116	=116	=116	=116	=116	=116	=116	=116
4G#X\	.	4c#/ 4e	.	8dd\L	.	4e\	.	4b\	.	4ee\	.
.	.	.	.	8b\	.	.	.	.	.	.	.
4E\	.	4c#/ 4e	.	8ee\	.	4e\	.	4b\	.	4ee\	.
.	.	.	.	8gg#X\	.	.	.	.	.	.	.
4G#\	.	4c#/ 4e	.	8bb\	.	4e\	.	4cc#\	.	4ee\	.
.	.	.	.	8dd\J	.	.	.	.	.	.	.
=117	=117	=117	=117	=117	=117	=117	=117	=117	=117	=117	=117
4A\	.	4c#/ 4e	.	8cc#\L	.	2d\	.	4cc#\	.	4ee\	.
.	.	.	.	8a\	.	.	.	.	.	.	.
4AA/	.	4c#/ 4e	.	8cc#\	.	.	.	4cc#\	.	4ee\	.
.	.	.	.	8ee\	.	.	.	.	.	.	.
4C#/	.	4e/ 4a	.	8aa\	.	4e\	.	4ee\	.	4aa\	.
.	.	.	.	8cc#\J	.	.	.	.	.	.	.
=118	=118	=118	=118	=118	=118	=118	=118	=118	=118	=118	=118
*	*	*^	*	*	*	*	*	*	*	*	*
!	!	!LO:N:vis=4	!	!	!	!	!	!	!	!	!	!
8D\L	.	8a/	4f#/	.	8b\	.	2.f#\	.	2.ff#\	.	2.aa\	.
8C#\	.	4a/	.	.	4b\ 4aa	.	.	.	.	.	.	.
8D\	.	.	2f#\	.	.	.	.	.	.	.	.	.
8E\	.	4a/	.	.	4b\ 4aa	.	.	.	.	.	.	.
8F#\	.	.	.	.	.	.	.	.	.	.	.	.
8E\J	.	8a/	.	.	8b\ 8aa	.	.	.	.	.	.	.
!	!	!LO:LB:g=original	!	!	!	!	!	!	!	!	!	!
!	!	!	!	!	!	!	!	!	!	!	!LO:LB:g=original	!
=119	=119	=119	=119	=119	=119	=119	=119	=119	=119	=119	=119	=119
*	*	*	*	*	*^	*	*	*	*	*	*	*
!	!	!LO:N:vis=2	!	!	!	!	!	!	!	!	!	!	!
8D#X\L	.	8b/	2.f#\	.	8b\	2.aa\	.	2.f#\	.	2.ff#\	.	2.aa\	.
8C#\	.	4b/	.	.	4b\	.	.	.	.	.	.	.	.
8D#\	.	.	.	.	.	.	.	.	.	.	.	.	.
8E\	.	4b/	.	.	4b\	.	.	.	.	.	.	.	.
8F#\	.	.	.	.	.	.	.	.	.	.	.	.	.
!LO:TX:a:t=d	!	!	!	!	!	!	!	!	!	!	!	!	!
8D#\J	.	8b/	.	.	8b\	.	.	.	.	.	.	.	.
*	*	*v	*v	*	*	*	*	*	*	*	*	*	*
*	*	*	*	*v	*v	*	*	*	*	*	*	*
!LO:LB:g=original	!	!	!	!	!	!	!	!	!	!	!
=120	=120	=120	=120	=120	=120	=120	=120	=120	=120	=120	=120
*tremolo	*	*	*	*	*	*	*	*	*	*	*
8E\L	.	4dd\	.	4b\ 4gg#X	.	4e\	.	4dd\	.	4gg#X\	.
8E\	.	.	.	.	.	.	.	.	.	.	.
8E\	.	4dd\	.	4b\ 4gg#	.	4e\	.	4b\	.	4dd\	.
8E\J	.	.	.	.	.	.	.	.	.	.	.
*Xtremolo	*	*	*	*	*	*	*	*	*	*	*
*tremolo	*	*	*	*	*	*	*	*	*	*	*
8F#\L	.	4cc#\	.	4cc#\ 4aa	.	4A/	.	4g/	.	4cc#\	.
8F#\J	.	.	.	.	.	.	.	.	.	.	.
*Xtremolo	*	*	*	*	*	*	*	*	*	*	*
=121	=121	=121	=121	=121	=121	=121	=121	=121	=121	=121	=121
*tremolo	*	*	*	*	*	*	*	*	*	*	*
8D\L	.	4ff#\	.	4dd\ 4bb	.	4d\	.	4dd\	.	4ff#\	.
8D\J	.	.	.	.	.	.	.	.	.	.	.
*Xtremolo	*	*	*	*	*	*	*	*	*	*	*
*tremolo	*	*	*	*	*	*	*	*	*	*	*
8D\L	.	4ff#\	.	4dd\ 4bb	.	4f#\	.	4dd\	.	4ff#\	.
8D\J	.	.	.	.	.	.	.	.	.	.	.
*Xtremolo	*	*	*	*	*	*	*	*	*	*	*
*tremolo	*	*	*	*	*	*	*	*	*	*	*
8E\L	.	4dd\	.	4b\ 4gg#X	.	4e\	.	4b\	.	4dd\	.
8E\J	.	.	.	.	.	.	.	.	.	.	.
*Xtremolo	*	*	*	*	*	*	*	*	*	*	*
=122	=122	=122	=122	=122	=122	=122	=122	=122	=122	=122	=122
4AA/	.	8cc#/L	.	4cc#\ 4aa	.	4e\	.	4a/	.	4cc#\	.
.	.	8e/	.	.	.	.	.	.	.	.	.
4C#/	.	8c#/	.	4r	.	4e\	.	4a/	.	4cc#\	.
.	.	8e/	.	.	.	.	.	.	.	.	.
4E/	.	8c#/	.	4ee\	.	4e\	.	4cc#/	.	4ee\	.
.	.	8e/J	.	.	.	.	.	.	.	.	.
!	!	!	!	!LO:LB:g=original	!	!	!	!	!	!	!
!	!	!	!	!	!	!LO:LB:g=original	!	!	!	!	!
=123	=123	=123	=123	=123	=123	=123	=123	=123	=123	=123	=123
*	*	*tremolo	*	*	*	*	*	*	*	*	*
!	!	!	!	!	!	!LO:TX:t=P:problem=brakujące takty?	!	!LO:TX:t=P:problem=brakujące takty?	!	!	!
4A\	.	8c#/L	.	4aa\	.	2.ryy	.	2.ryy	.	4gg\	.
.	.	8e/	.	.	.	.	.	.	.	.	.
4A\	.	8c#/	.	4aa\	.	.	.	.	.	4ee\	.
.	.	8e/J	.	.	.	.	.	.	.	.	.
*	*	*Xtremolo	*	*	*	*	*	*	*	*	*
4E\	.	8d/L	.	4bb\	.	.	.	.	.	4dd\	.
.	.	8e/J	.	.	.	.	.	.	.	.	.
=124	=124	=124	=124	=124	=124	=124	=124	=124	=124	=124	=124
*	*	*tremolo	*	*	*	*	*	*	*	*	*
4AA/	.	8c#/L	.	4ccc#\	.	2.ryy	.	2.ryy	.	4cc#\	.
.	.	8e/	.	.	.	.	.	.	.	.	.
4C#/	.	8c#/	.	4r	.	.	.	.	.	4cc#\	.
.	.	8e/J	.	.	.	.	.	.	.	.	.
*	*	*Xtremolo	*	*	*	*	*	*	*	*	*
4E/	.	8c#/L	.	4ee\	.	.	.	.	.	4ee\	.
.	.	8e/J	.	.	.	.	.	.	.	.	.
=125	=125	=125	=125	=125	=125	=125	=125	=125	=125	=125	=125
*	*	*tremolo	*	*	*	*	*	*	*	*	*
4A\	.	8c#/L	.	4aa\	.	4e\	.	4cc#\	.	4aa\	.
.	.	8e/	.	.	.	.	.	.	.	.	.
4A\	.	8c#/	.	4aa\	.	4e\	.	4cc#\	.	4ee\	.
.	.	8e/J	.	.	.	.	.	.	.	.	.
*	*	*Xtremolo	*	*	*	*	*	*	*	*	*
4E\	.	8d/L	.	4bb\	.	4e\	.	4b\	.	4dd\	.
.	.	8e/J	.	.	.	.	.	.	.	.	.
!	!	!	!	!	!	!	!	!LO:LB:g=original	!	!	!
=126	=126	=126	=126	=126	=126	=126	=126	=126	=126	=126	=126
*	*	*tremolo	*	*	*	*	*	*	*	*	*
4AA/	.	8c#/L	.	4ccc#\	.	2e\	.	4a/	.	4cc#\	.
.	.	8e/	.	.	.	.	.	.	.	.	.
4C#/	.	8c#/	.	4aa\	.	.	.	4cc#/	.	4ee\	.
.	.	8e/J	.	.	.	.	.	.	.	.	.
*	*	*Xtremolo	*	*	*	*	*	*	*	*	*
4E/	.	8d/L	.	4bb\	.	4e\	.	4b/	.	4dd\	.
.	.	8e/J	.	.	.	.	.	.	.	.	.
=127	=127	=127	=127	=127	=127	=127	=127	=127	=127	=127	=127
*	*	*tremolo	*	*	*	*	*	*	*	*	*
4AA/	.	8c#/L	.	4ccc#\	.	4e\	.	4a/	.	4cc#\	.
.	.	8e/	.	.	.	.	.	.	.	.	.
4C#/	.	8c#/	.	4aa\	.	4e\	.	4cc#/	.	4ee\	.
.	.	8e/J	.	.	.	.	.	.	.	.	.
*	*	*Xtremolo	*	*	*	*	*	*	*	*	*
4E/	.	8d/L	.	4bb\	.	4e\	.	4b/	.	4dd\	.
.	.	8e/J	.	.	.	.	.	.	.	.	.
!	!	!LO:LB:g=original	!	!	!	!	!	!	!	!	!
=128	=128	=128	=128	=128	=128	=128	=128	=128	=128	=128	=128
4A\	.	4c#/	.	4ccc#\	.	4e\	.	4a/	.	4cc#\	.
4E\	.	4c#/ 4e	.	4cc#\ 4aa	.	4e\	.	4cc#/	.	4aa\	.
4C#/	.	4c#/ 4e	.	4cc#\ 4aa	.	4e\	.	4cc#/	.	4aa\	.
!LO:LB:g=original	!	!	!	!	!	!	!	!	!	!	!
=129	=129	=129	=129	=129	=129	=129	=129	=129	=129	=129	=129
4AA/	.	4c#/ 4e	.	4cc#\ 4aa	.	4e\	.	4cc#\	.	4aa\	.
4r	.	4r	.	4r	.	4r	.	4r	.	4r	.
4r	.	4r	.	4r	.	4r	.	4r	.	4r	.
!	!	!	!	!	!	!	!	!	!	!LO:LB:g=original	!
!	!	!	!	!	!	!LO:LB:g=original	!	!	!	!	!
=130:|!	=130:|!	=130:|!	=130:|!	=130:|!	=130:|!	=130:|!	=130:|!	=130:|!	=130:|!	=130:|!	=130:|!
!	!	!	!	!LO:TX:t=P:problem=drugie zakończenie (?)	!	!	!	!	!	!	!
2.ryy	.	2.ryy	.	4cc#\ 4aa	.	2.ryy	.	2.ryy	.	2.ryy	.
.	.	.	.	8r	.	.	.	.	.	.	.
.	.	.	.	8aa\L	.	.	.	.	.	.	.
.	.	.	.	8ggn\	.	.	.	.	.	.	.
.	.	.	.	8ee\J	.	.	.	.	.	.	.
!	!	!	!	!LO:LB:g=original	!	!	!	!	!	!	!
=131:|!	=131:|!	=131:|!	=131:|!	=131:|!	=131:|!	=131:|!	=131:|!	=131:|!	=131:|!	=131:|!	=131:|!
!	!	!	!LO:DY:a	!	!	!LO:TX:a:t=2	!	!LO:TX:a:t=2	!	!LO:TX:a:t=2	!
[2.A\	p	4g/	p	4cc#\	.	2.r	.	2.r	.	2.r	.
.	.	4g/	.	4cc#\	.	.	.	.	.	.	.
.	.	4f#/	.	4dd\	.	.	.	.	.	.	.
=132	=132	=132	=132	=132	=132	=132	=132	=132	=132	=132	=132
2.A\]	.	4g/	.	4ee\	.	2.r	.	2.r	.	2.r	.
.	.	4g/	.	4ee\	.	.	.	.	.	.	.
.	.	4f#/	.	4ff#\	.	.	.	.	.	.	.
=133	=133	=133	=133	=133	=133	=133	=133	=133	=133	=133	=133
!	!	!	!	!	!	!	!LO:DY:a	!	!LO:DY:a	!	!LO:DY:a
4A\	.	4e/	.	4ggn\	.	4e\	p	4ee\	p	4ggn\	p
4A\	.	4e/	.	4gg\	.	4e\	.	4ee\	.	4gg\	.
4A\	.	4e/	.	4gg\	.	4e\	.	4ee\	.	4gg\	.
=134	=134	=134	=134	=134	=134	=134	=134	=134	=134	=134	=134
4A\	.	4e/	.	8gg\L	.	4e\	.	4ee\	.	4gg\	.
.	.	.	.	8aa\	.	.	.	.	.	.	.
4r	.	4r	.	8bb\	.	4r	.	4r	.	4r	.
.	.	.	.	8ff#\	.	.	.	.	.	.	.
4r	.	4r	.	8gg\	.	4r	.	4r	.	4r	.
.	.	.	.	8ee\J	.	.	.	.	.	.	.
=135	=135	=135	=135	=135	=135	=135	=135	=135	=135	=135	=135
!	!	!	!	!	!	!LO:TX:a:t=2	!	!LO:TX:a:t=2	!	!LO:TX:a:t=2	!
2.A\	.	2g/	.	4cc#\	.	2.r	.	2.r	.	2.r	.
.	.	.	.	4cc#\	.	.	.	.	.	.	.
.	.	4f#/	.	4dd\	.	.	.	.	.	.	.
=136	=136	=136	=136	=136	=136	=136	=136	=136	=136	=136	=136
2.A\	.	2g/	.	2ee\	.	2.r	.	2.r	.	2.r	.
.	.	4f#/	.	4ff#\	.	.	.	.	.	.	.
=137	=137	=137	=137	=137	=137	=137	=137	=137	=137	=137	=137
!	!	!	!	!	!	!	!LO:DY:a	!	!	!	!
4A#X\	.	4e/	.	4gg\	.	4e\	p	4ee\	.	4gg\	.
4A#\	.	4e/	.	4gg\	.	4e\	.	4ee\	.	4gg\	.
4A#\	.	4e/	.	4gg\	.	4e\	.	4ee\	.	4gg\	.
!	!	!LO:LB:g=original	!	!	!	!	!	!	!	!	!
=138	=138	=138	=138	=138	=138	=138	=138	=138	=138	=138	=138
4A#X\	.	4e/	.	8gg\L	.	4e\	.	4ee\	.	4gg\	.
.	.	.	.	8ff#\	.	.	.	.	.	.	.
4r	.	4r	.	8gg\	.	4r	.	4r	.	4r	.
.	.	.	.	8ee\	.	.	.	.	.	.	.
4r	.	4f#/	.	8dd\	.	4f#\	.	4cc#\	.	4ee\	.
.	.	.	.	8cc#\J	.	.	.	.	.	.	.
=139	=139	=139	=139	=139	=139	=139	=139	=139	=139	=139	=139
!LO:TX:a:t=1	!	!	!	!	!	!	!	!	!	!	!
2.r	.	4d/	.	4dd\	.	4f#\	.	4b\	.	4dd\	.
.	.	4d/	.	4r	.	4r	.	4b\	.	4dd\	.
.	.	4e/	.	4r	.	4r	.	4cc#\	.	4ee\	.
!	!	!	!	!	!	!	!	!LO:LB:g=original	!	!	!
=140	=140	=140	=140	=140	=140	=140	=140	=140	=140	=140	=140
!	!	!	!	!LO:TX:a:t=1	!	!LO:TX:a:t=1	!	!	!	!	!
4r	.	2f#/	.	2.r	.	2.r	.	2dd\	.	2ff#\	.
4r	.	.	.	.	.	.	.	.	.	.	.
4BB/	.	4b/	.	.	.	.	.	4dd#X\	.	4bb\	.
!LO:LB:g=original	!	!	!	!LO:LB:g=original	!	!	!	!	!	!	!
=141	=141	=141	=141	=141	=141	=141	=141	=141	=141	=141	=141
4E\	.	4g/	.	4gg\	.	4e\	.	4ee\	.	4gg\	.
4E\	.	4g/	.	4gg\	.	4e\	.	4ee\	.	4gg\	.
4F#\	.	4f#/	.	4aa\	.	4f#\	.	4b\	.	4ff#\	.
=142	=142	=142	=142	=142	=142	=142	=142	=142	=142	=142	=142
2G\	.	4e/	.	8bb\L	.	2e\	.	4g/	.	4ee\	.
.	.	.	.	8aa\	.	.	.	.	.	.	.
.	.	4r	.	8gg\	.	.	.	4r	.	4r	.
.	.	.	.	8ff#\	.	.	.	.	.	.	.
4G#X\	.	4r	.	8ee\	.	4r	.	4b\	.	4ee\	.
.	.	.	.	8dd\J	.	.	.	.	.	.	.
=143	=143	=143	=143	=143	=143	=143	=143	=143	=143	=143	=143
!	!	!	!	!	!	!LO:TX:a:t=2	!	!	!	!	!
4A\	.	4c#/	.	4cc#\	.	2.r	.	4a/	.	4cc#\	.
4r	.	4c#/	.	4r	.	.	.	4a/	.	4cc#\	.
4r	.	4d/	.	4r	.	.	.	4b/	.	4dd\	.
!	!	!	!	!	!	!	!	!	!	!LO:LB:g=original	!
=144	=144	=144	=144	=144	=144	=144	=144	=144	=144	=144	=144
!	!	!	!	!LO:TX:a:t=1	!	!	!	!	!	!	!
4r	.	2e/	.	2.r	.	2.r	.	2cc#\	.	2ee\	.
4r	.	.	.	.	.	.	.	.	.	.	.
4AA/	.	4a/	.	.	.	.	.	4ee\	.	4aa\	.
!	!	!	!	!	!	!LO:LB:g=original	!	!	!	!	!
=145	=145	=145	=145	=145	=145	=145	=145	=145	=145	=145	=145
4D\	.	4f#/	.	4ff#\	.	4d\	.	4a/	.	4ff#\	.
4D\	.	4f#/	.	4ff#\	.	4d\	.	4a/	.	4ff#\	.
4E\	.	4e/	.	4gg\	.	4e\	.	4g/	.	4ee\	.
=146	=146	=146	=146	=146	=146	=146	=146	=146	=146	=146	=146
2F#\	.	4d/	.	8aa\L	.	2d\	.	4f#/	.	4dd\	.
.	.	.	.	8gg\	.	.	.	.	.	.	.
.	.	4r	.	8ff#\	.	.	.	4r	.	4r	.
.	.	.	.	8ee\	.	.	.	.	.	.	.
4D\	.	4d/	.	8dd\	.	4r	.	4a/	.	4dd\	.
.	.	.	.	8cc#\J	.	.	.	.	.	.	.
=147	=147	=147	=147	=147	=147	=147	=147	=147	=147	=147	=147
!	!	!	!	!	!	!LO:TX:a:t=6	!	!	!	!	!
4G\	.	4B/	.	4b\	.	2.r	.	4g/	.	4b\	.
4r	.	4B/	.	4r	.	.	.	4g/	.	4b\	.
4r	.	4c#/	.	4r	.	.	.	4a/	.	4cc#\	.
=148	=148	=148	=148	=148	=148	=148	=148	=148	=148	=148	=148
!	!	!	!	!LO:TX:a:t=1	!	!	!	!	!	!	!
4r	.	2d/	.	2.r	.	2.r	.	2b\	.	2dd\	.
4r	.	.	.	.	.	.	.	.	.	.	.
4GG/	.	4g/	.	.	.	.	.	4b\	.	4gg\	.
!	!	!LO:LB:g=original	!	!	!	!	!	!	!	!	!
=149	=149	=149	=149	=149	=149	=149	=149	=149	=149	=149	=149
4C#/	.	4e/	.	4ee\	.	2.r	.	4cc#\	.	4ee\	.
4C#/	.	4e/	.	4ee\	.	.	.	4g/	.	4ee\	.
4D/	.	4d/	.	4ff#\	.	.	.	4f#/	.	4dd\	.
!LO:LB:g=original	!	!	!	!	!	!	!	!	!	!	!
=150	=150	=150	=150	=150	=150	=150	=150	=150	=150	=150	=150
2E\	.	4c#/	.	8gg\L	.	2.r	.	4e/	.	4cc#\	.
.	.	.	.	8ff#\	.	.	.	.	.	.	.
.	.	4r	.	8ee\	.	.	.	4r	.	4r	.
.	.	.	.	8dd\	.	.	.	.	.	.	.
4C#/	.	4c#/	.	8cc#\	.	.	.	4r	.	4r	.
.	.	.	.	8b\J	.	.	.	.	.	.	.
!	!	!	!	!LO:LB:g=original	!	!	!	!	!	!	!
!	!	!	!	!	!	!	!	!LO:LB:g=original	!	!	!
=151	=151	=151	=151	=151	=151	=151	=151	=151	=151	=151	=151
4F#\	.	4A#X/	.	4a#X/	.	2.r	.	4f#/	.	4a#X/	.
4r	.	4A#/	.	4r	.	.	.	4f#/	.	4a#/	.
4r	.	4B/	.	4r	.	.	.	4g#X/	.	4b/	.
=152	=152	=152	=152	=152	=152	=152	=152	=152	=152	=152	=152
!LO:TX:a:t=1	!	!	!	!LO:TX:a:t=1	!	!	!	!	!	!	!
2.r	.	2c#/	.	2.r	.	2.r	.	2a#X/	.	2cc#\	.
.	.	4f#/	.	.	.	.	.	4f#/	.	4ff#\	.
=153	=153	=153	=153	=153	=153	=153	=153	=153	=153	=153	=153
!	!	!	!	!	!	!	!LO:DY:a	!	!	!	!
*	*	*tremolo	*	*	*	*	*	*	*	*	*
4B\	.	8d/L	.	4dd\	.	2.f#\	p	2.f#/	.	2.ff#\	.
.	.	8f#/	.	.	.	.	.	.	.	.	.
4r	.	8d/	.	4dd\	.	.	.	.	.	.	.
.	.	8f#/J	.	.	.	.	.	.	.	.	.
*	*	*Xtremolo	*	*	*	*	*	*	*	*	*
4r	.	8d/L	.	4dd\	.	.	.	.	.	.	.
.	.	8f#/J	.	.	.	.	.	.	.	.	.
=154	=154	=154	=154	=154	=154	=154	=154	=154	=154	=154	=154
*	*	*tremolo	*	*	*	*	*	*	*	*	*
4G#X\	.	8d/L	.	2cc#\	.	2.f#\	.	2.f#/	.	2.ff#\	.
.	.	8f#/	.	.	.	.	.	.	.	.	.
4r	.	8d/	.	.	.	.	.	.	.	.	.
.	.	8f#/J	.	.	.	.	.	.	.	.	.
*	*	*Xtremolo	*	*	*	*	*	*	*	*	*
4r	.	8d/L	.	4ff#\	.	.	.	.	.	.	.
.	.	8f#/J	.	.	.	.	.	.	.	.	.
=155	=155	=155	=155	=155	=155	=155	=155	=155	=155	=155	=155
*	*	*tremolo	*	*	*	*	*	*	*	*	*
4F#\	.	8d/L	.	4dd\	.	2.f#\	.	2.f#/	.	2.ff#\	.
.	.	8f#/	.	.	.	.	.	.	.	.	.
4r	.	8d/	.	4dd\	.	.	.	.	.	.	.
.	.	8f#/J	.	.	.	.	.	.	.	.	.
*	*	*Xtremolo	*	*	*	*	*	*	*	*	*
4r	.	8d/L	.	4dd\	.	.	.	.	.	.	.
.	.	8f#/J	.	.	.	.	.	.	.	.	.
!	!	!	!	!	!	!	!	!	!	!LO:LB:g=original	!
=156	=156	=156	=156	=156	=156	=156	=156	=156	=156	=156	=156
*	*	*tremolo	*	*	*	*	*	*	*	*	*
4A#X\	.	8e/L	.	2cc#\	.	2.f#\	.	2.f#/	.	2.ff#\	.
.	.	8f#/	.	.	.	.	.	.	.	.	.
4r	.	8e/	.	.	.	.	.	.	.	.	.
.	.	8f#/J	.	.	.	.	.	.	.	.	.
*	*	*Xtremolo	*	*	*	*	*	*	*	*	*
4r	.	8e/L	.	4ff#\	.	.	.	.	.	.	.
.	.	8f#/J	.	.	.	.	.	.	.	.	.
=157	=157	=157	=157	=157	=157	=157	=157	=157	=157	=157	=157
*	*	*tremolo	*	*	*	*	*	*	*	*	*
4B\	.	8d/L	.	4dd\	.	2f#\	.	2f#/	.	2ff#\	.
.	.	8f#/	.	.	.	.	.	.	.	.	.
4r	.	8d/	.	4dd\	.	.	.	.	.	.	.
.	.	8f#/J	.	.	.	.	.	.	.	.	.
*	*	*Xtremolo	*	*	*	*	*	*	*	*	*
4r	.	8d/L	.	4dd\	.	4r	.	4r	.	4a/	.
.	.	8f#/J	.	.	.	.	.	.	.	.	.
=158	=158	=158	=158	=158	=158	=158	=158	=158	=158	=158	=158
!	!	!	!	!	!	!LO:TX:a:t=4	!	!LO:TX:a:t=1	!	!LO:TX:a:t=1	!
*	*	*tremolo	*	*	*	*	*	*	*	*	*
4D\	.	8d/L	.	2ff#\	.	2.r	.	2.r	.	2.r	.
.	.	8f#/	.	.	.	.	.	.	.	.	.
4r	.	8d/	.	.	.	.	.	.	.	.	.
.	.	8f#/J	.	.	.	.	.	.	.	.	.
*	*	*Xtremolo	*	*	*	*	*	*	*	*	*
4r	.	8d/L	.	4bb\	.	.	.	.	.	.	.
.	.	8f#/J	.	.	.	.	.	.	.	.	.
!LO:LB:g=original	!	!LO:LB:g=original	!	!	!	!	!	!	!	!	!
=159	=159	=159	=159	=159	=159	=159	=159	=159	=159	=159	=159
4r	.	4r	.	(4bb\	.	2.r	.	4r	.	4r	.
!	!	!LO:TX:a:t=h	!	!	!	!	!	!	!	!	!
4E\	.	4b\	.	4gg\)	.	.	.	4b\	.	4gg\	.
4E\	.	4b\	.	4gg'\	.	.	.	4b\	.	4gg\	.
=160	=160	=160	=160	=160	=160	=160	=160	=160	=160	=160	=160
4r	.	4r	.	(4gg\	.	2.r	.	4r	.	4r	.
4G\	.	4b/	.	4ee\)	.	.	.	4ee\	.	4gg\	.
4G\	.	4b/	.	4ee'\	.	.	.	4ee\	.	4gg\	.
=161	=161	=161	=161	=161	=161	=161	=161	=161	=161	=161	=161
4r	.	4r	.	(4ee\	.	2.r	.	4r	.	4r	.
4E\	.	4g/	.	4cc#\)	.	.	.	4cc#\	.	4gg\	.
4E\	.	4g/	.	4cc#'\	.	.	.	4cc#\	.	4gg\	.
!	!	!	!	!LO:LB:g=original	!	!	!	!	!	!	!
=162	=162	=162	=162	=162	=162	=162	=162	=162	=162	=162	=162
!	!	!	!	!	!	!	!LO:DY:a	!	!	!	!
4r	.	4r	.	(4cc#\	.	4r	p	4r	.	4r	.
4F#\	.	4e/	.	4a#X\)	.	4f#\	.	4cc#\	.	4ee\	.
4F#\	.	4e/	.	4a#'\	.	4f#\	.	4cc#\	.	4ee\	.
=163	=163	=163	=163	=163	=163	=163	=163	=163	=163	=163	=163
*	*	*Xtremolo	*	*	*	*	*	*	*	*	*
4F#\	.	8e/L	.	4a#X/	.	2f#\	.	4cc#\	.	4ee\	.
.	.	8f#/	.	.	.	.	.	.	.	.	.
4r	.	8f#/	.	4r	.	.	.	4r	.	4r	.
.	.	8f#/	.	.	.	.	.	.	.	.	.
4r	.	8f#/	.	4r	.	4r	.	4r	.	4r	.
.	.	8f#/J	.	.	.	.	.	.	.	.	.
!	!	!	!	!	!	!	!	!LO:LB:g=original	!	!	!
=164	=164	=164	=164	=164	=164	=164	=164	=164	=164	=164	=164
!LO:TX:a:t=2	!	!	!	!	!	!	!	!	!	!	!
*	*	*tremolo	*	*	*	*	*	*	*	*	*
!	!	!	!	!LO:TX:a:t=1	!	!LO:TX:a:t=17	!	!	!	!	!
2.r	.	8f#/L	.	2.r	.	2.r	.	4r	.	4r	.
.	.	8f#/	.	.	.	.	.	.	.	.	.
.	.	8f#/	.	.	.	.	.	4r	.	4r	.
.	.	8f#/	.	.	.	.	.	.	.	.	.
!	!	!	!	!	!	!	!	!LO:TX:a:i:t=ſolo	!	!LO:TX:a:i:t=ſolo	!
.	.	8f#/	.	.	.	.	.	4f#/	.	4ff#\	.
.	.	8f#/J	.	.	.	.	.	.	.	.	.
*	*	*Xtremolo	*	*	*	*	*	*	*	*	*
=165	=165	=165	=165	=165||:	=165	=165	=165	=165	=165	=165	=165
*	*	*	*	*tremolo	*	*	*	*	*	*	*
2.r	.	4d/	p	8f#/L	.	2.r	.	4b/	.	4dd\	.
.	.	.	.	8f#/	.	.	.	.	.	.	.
.	.	4d/	.	8f#/	.	.	.	4b/	.	4dd\	.
.	.	.	.	8f#/	.	.	.	.	.	.	.
.	.	4e/	.	8f#/	.	.	.	4cc#/	.	4ee\	.
.	.	.	.	8f#/J	.	.	.	.	.	.	.
*	*	*	*	*Xtremolo	*	*	*	*	*	*	*
=166	=166	=166	=166	=166	=166	=166	=166	=166	=166	=166	=166
*	*	*	*	*tremolo	*	*	*	*	*	*	*
!	!LO:DY:a	!	!	!	!	!	!	!	!	!	!
!	!LO:DY:t=p.	!	!	!	!	!	!	!	!	!	!
4BB/	p	2f#/	.	8f#/L	.	2.r	.	2dd\	.	2ff#\	.
.	.	.	.	8f#/	.	.	.	.	.	.	.
4B\	.	.	.	8f#/	.	.	.	.	.	.	.
.	.	.	.	8f#/	.	.	.	.	.	.	.
4B\	.	4d/	.	8f#/	.	.	.	4b\	.	4dd\	.
.	.	.	.	8f#/J	.	.	.	.	.	.	.
*	*	*	*	*Xtremolo	*	*	*	*	*	*	*
=167	=167	=167	=167	=167	=167	=167	=167	=167	=167	=167	=167
*	*	*	*	*tremolo	*	*	*	*	*	*	*
4F#\	.	4c#/	.	8f#/L	.	2.r	.	4a#X/	.	4cc#\	.
.	.	.	.	8f#/	.	.	.	.	.	.	.
4F#\	.	4c#/	.	8f#/	.	.	.	4a#/	.	4b\	.
.	.	.	.	8f#/	.	.	.	.	.	.	.
4F#\	.	4c#/	.	8f#/	.	.	.	4a#/	.	4b\	.
.	.	.	.	8f#/J	.	.	.	.	.	.	.
*	*	*	*	*Xtremolo	*	*	*	*	*	*	*
!	!	!	!	!	!	!	!	!	!	!LO:LB:g=original	!
=168	=168	=168	=168	=168	=168	=168	=168	=168	=168	=168	=168
!	!LO:DY:a:t=f.	!	!	!	!	!	!	!	!	!	!
*	*	*	*	*tremolo	*	*	*	*	*	*	*
8F#\L	f	4c#/	.	8f#/L	.	2.r	.	4a#X/	.	4cc#\	.
8G\	.	.	.	8f#/	.	.	.	.	.	.	.
8F#\	.	4r	.	8f#/	.	.	.	4r	.	4r	.
8E\	.	.	.	8f#/	.	.	.	.	.	.	.
8D\	.	4f#/	.	8f#/	.	.	.	4f#/	.	4ff#\	.
8C#\J	.	.	.	8f#/J	.	.	.	.	.	.	.
*	*	*	*	*Xtremolo	*	*	*	*	*	*	*
!LO:LB:g=original	!	!LO:LB:g=original	!	!	!	!	!	!	!	!	!
=169	=169	=169	=169	=169:||	=169	=169	=169	=169	=169	=169	=169
*	*	*	*	*tremolo	*	*	*	*	*	*	*
!	!	!	!	!LO:TX:t=P:problem= 169-172 zapisane repetycją	!	!	!	!	!	!	!
4BB/	.	4d/	.	8f#/Lyy	.	2.r	.	4b\	.	4dd\	.
.	.	.	.	8f#/yy	.	.	.	.	.	.	.
4r	.	4d/	.	8f#/yy	.	.	.	4b\	.	4dd\	.
.	.	.	.	8f#/yy	.	.	.	.	.	.	.
4r	.	4e/	.	8f#/yy	.	.	.	4cc#\	.	4ee\	.
.	.	.	.	8f#/Jyy	.	.	.	.	.	.	.
*	*	*	*	*Xtremolo	*	*	*	*	*	*	*
=170	=170	=170	=170	=170	=170	=170	=170	=170	=170	=170	=170
*	*	*	*	*tremolo	*	*	*	*	*	*	*
4BB/	.	2f#/	.	8f#/Lyy	.	2.r	.	2dd\	.	2ff#\	.
.	.	.	.	8f#/yy	.	.	.	.	.	.	.
4B\	.	.	.	8f#/yy	.	.	.	.	.	.	.
.	.	.	.	8f#/yy	.	.	.	.	.	.	.
4B\	.	4d/	.	8f#/yy	.	.	.	4b\	.	4dd\	.
.	.	.	.	8f#/Jyy	.	.	.	.	.	.	.
*	*	*	*	*Xtremolo	*	*	*	*	*	*	*
=171	=171	=171	=171	=171	=171	=171	=171	=171	=171	=171	=171
*	*	*	*	*tremolo	*	*	*	*	*	*	*
4F#\	.	4c#/	.	8f#/Lyy	.	2.r	.	4a#X/	.	4cc#\	.
.	.	.	.	8f#/yy	.	.	.	.	.	.	.
4F#\	.	4c#/	.	8f#/yy	.	.	.	4a#/	.	4cc#\	.
.	.	.	.	8f#/yy	.	.	.	.	.	.	.
4F#\	.	4c#/	.	8f#/yy	.	.	.	4a#/	.	4cc#\	.
.	.	.	.	8f#/Jyy	.	.	.	.	.	.	.
*	*	*	*	*Xtremolo	*	*	*	*	*	*	*
=172	=172	=172	=172	=172	=172	=172	=172	=172	=172	=172	=172
*	*	*	*	*tremolo	*	*	*	*	*	*	*
8F#\L	.	4c#/	.	8f#/Lyy	.	2.r	.	4a#X/	.	4cc#\	.
8G\	.	.	.	8f#/yy	.	.	.	.	.	.	.
8F#\	.	4r	.	8f#/yy	.	.	.	4r	.	4r	.
8E\	.	.	.	8f#/yy	.	.	.	.	.	.	.
8D\	.	4f#/	.	8f#/yy	.	.	.	4a#/	.	4ff#\	.
8C#\J	.	.	.	8f#/Jyy	.	.	.	.	.	.	.
*	*	*	*	*Xtremolo	*	*	*	*	*	*	*
=173	=173	=173	=173	=173	=173	=173	=173	=173	=173	=173	=173
4BB/	.	2.f#/	.	2.f#/	.	2.r	.	4b\	.	4dd\	.
!	!	!	!	!	!	!	!	!LO:TX:a:t=h	!	!	!
4r	.	.	.	.	.	.	.	4b\	.	4dd\	.
4r	.	.	.	.	.	.	.	4cc#\	.	4ee\	.
=174	=174	=174	=174	=174	=174	=174	=174	=174	=174	=174	=174
2.d\	.	2.f#/	.	2.b\	.	2.r	.	2.b\	.	2ff#\	.
.	.	.	.	.	.	.	.	.	.	4bb\	.
!	!	!	!	!	!	!	!	!LO:LB:g=original	!	!	!
=175	=175	=175	=175	=175	=175	=175	=175	=175	=175	=175	=175
2.e\	.	2.g/	.	2.b\	.	2.r	.	2.b\	.	4gg'\	.
.	.	.	.	.	.	.	.	.	.	(4gg\	.
.	.	.	.	.	.	.	.	.	.	4bb\)	.
=176	=176	=176	=176	=176	=176	=176	=176	=176	=176	=176	=176
2.c#\	.	2.e/	.	2.a/	.	2.r	.	2.a/	.	4ee'\	.
.	.	.	.	.	.	.	.	.	.	(4ee\	.
.	.	.	.	.	.	.	.	.	.	4gg\)	.
=177	=177	=177	=177	=177	=177	=177	=177	=177	=177	=177	=177
2.dn\	.	2.f#/	.	2.a/	.	2.r	.	2.a/	.	4ff#'\	.
.	.	.	.	.	.	.	.	.	.	(4ff#\	.
.	.	.	.	.	.	.	.	.	.	4aa\)	.
=178	=178	=178	=178	=178	=178	=178	=178	=178	=178	=178	=178
2.F#\	.	2d/	.	2.a/	.	2.r	.	2.a/	.	4dd'\	.
.	.	.	.	.	.	.	.	.	.	(4dd\	.
.	.	4f#/	.	.	.	.	.	.	.	4ff#\)	.
!	!	!	!	!	!	!	!	!	!	!LO:LB:g=original	!
=179	=179	=179	=179	=179	=179	=179	=179	=179	=179	=179	=179
2.G\	.	2.e/	.	2.b\	.	2.r	.	2.b\	.	4ee'\	.
.	.	.	.	.	.	.	.	.	.	(4ee\	.
.	.	.	.	.	.	.	.	.	.	4gg\)	.
!LO:LB:g=original	!	!	!	!	!	!	!	!	!	!	!
=180	=180	=180	=180	=180	=180	=180	=180	=180	=180	=180	=180
2G\	.	2e/	.	2.b\	.	2.r	.	2b\	.	(4bb\	.
.	.	.	.	.	.	.	.	.	.	4gg\)	.
4G#X\	.	4d/	.	.	.	.	.	4b\	.	4ee'\	.
!	!	!LO:LB:g=original	!	!LO:LB:g=original	!	!	!	!	!	!	!
=181	=181	=181	=181	=181	=181	=181	=181	=181	=181	=181	=181
!	!	!	!	!	!	!	!LO:DY:a	!	!	!	!
(2.A\	.	2.e/	.	4cc#\	.	2.e\	p	2a/	.	2cc#\	.
.	.	.	.	(4bb\	.	.	.	.	.	.	.
.	.	.	.	4aa\	.	.	.	4cc#\	.	4ee\	.
=182	=182	=182	=182	=182	=182	=182	=182	=182	=182	=182	=182
2.A\	.	2.g/	.	4gg\	.	2.e\	.	2.ee\	.	2.gg\	.
.	.	.	.	4ff#\	.	.	.	.	.	.	.
.	.	.	.	4ee\)	.	.	.	.	.	.	.
!	!	!	!	!	!	!LO:LB:g=original	!	!	!	!	!
=183	=183	=183	=183	=183	=183	=183	=183	=183	=183	=183	=183
2.A\)	.	2.f#/	.	4ff#\	.	2.f#\	.	2.dd\	.	2.ff#\	.
.	.	.	.	(4ddd\	.	.	.	.	.	.	.
.	.	.	.	4ccc#\	.	.	.	.	.	.	.
=184	=184	=184	=184	=184	=184	=184	=184	=184	=184	=184	=184
2.A\	.	2.d/	.	4bb\	.	2.e\	.	2.dd\	.	2.gg#X\	.
.	.	.	.	4aa\	.	.	.	.	.	.	.
.	.	.	.	4gg#X\)	.	.	.	.	.	.	.
=185	=185	=185	=185	=185	=185	=185	=185	=185	=185	=185	=185
!	!	!	!	!	!	!	!	!LO:TX:t=P:problem=brakujące takty?	!	!	!
(2.AA/	.	2.e/	.	4aa\	.	2.e\	.	2.ryy	.	2.aa\	.
.	.	.	.	4ee\	.	.	.	.	.	.	.
.	.	.	.	4ee\	.	.	.	.	.	.	.
=186	=186	=186	=186	=186	=186	=186	=186	=186	=186	=186	=186
2.AA/	.	2.g/	.	(4ee\	.	2.e\	.	2.ryy	.	2.ggn\	.
.	.	.	.	4gg\)	.	.	.	.	.	.	.
.	.	.	.	4ee`\	.	.	.	.	.	.	.
=187	=187	=187	=187	=187	=187	=187	=187	=187	=187	=187	=187
2.AA/)	.	2.f#/	.	(4ff#\	.	2.f#\	.	2.ryy	.	2.ff#\	.
.	.	.	.	4dd\)	.	.	.	.	.	.	.
.	.	.	.	4dd'\	.	.	.	.	.	.	.
=188	=188	=188	=188	=188	=188	=188	=188	=188	=188	=188	=188
2.AA/	.	2.d/	.	(4dd\	.	2.e\	.	2.ryy	.	2.gg#X\	.
.	.	.	.	4b\)	.	.	.	.	.	.	.
.	.	.	.	4g#X'/	.	.	.	.	.	.	.
=189	=189	=189	=189	=189	=189	=189	=189	=189	=189	=189	=189
4AA/	.	4c#/	.	4a/	.	4e\	.	4cc#\	.	4aa\	.
4A\	.	4c#/ 4e	.	4cc#\	.	4r	.	4r	.	4r	.
4A\	.	4c#/ 4e	.	4ee\	.	4r	.	4r	.	4r	.
=190	=190	=190	=190	=190	=190	=190	=190	=190	=190	=190	=190
4A\	.	4g/	.	4.gg\	.	4e\	.	4ee\	.	4ggn\	.
4A\	.	4g/	.	.	.	4e\	.	4ee\	.	4gg\	.
.	.	.	.	(8ff#\L	.	.	.	.	.	.	.
4r	.	4r	.	8ee\	.	4r	.	4r	.	4r	.
.	.	.	.	8dd\J)	.	.	.	.	.	.	.
!	!	!	!	!LO:LB:g=original	!	!	!	!	!	!LO:LB:g=original	!
=191	=191	=191	=191	=191	=191	=191	=191	=191	=191	=191	=191
4A\	.	4g/	.	8cc#\L	.	4e\	.	4ee\	.	4gg\	.
.	.	.	.	8ee\	.	.	.	.	.	.	.
4A\	.	4g/	.	8gg\	.	4e\	.	4ee\	.	4gg\	.
.	.	.	.	8ff#\	.	.	.	.	.	.	.
4r	.	4r	.	8ee\	.	4r	.	4r	.	4r	.
.	.	.	.	8dd\J	.	.	.	.	.	.	.
!LO:LB:g=original	!	!	!	!	!	!	!	!	!	!	!
!	!	!	!	!	!	!	!	!LO:LB:g=original	!	!	!
=192	=192	=192	=192	=192	=192	=192	=192	=192	=192	=192	=192
4A\	.	4g/	.	8cc#\L	.	4e\	.	4ee\	.	4gg\	.
.	.	.	.	8ee\	.	.	.	.	.	.	.
4A\	.	4g/	.	8gg\	.	4e\	.	4ee\	.	4gg\	.
.	.	.	.	8aa\	.	.	.	.	.	.	.
4r	.	4g/	.	8bb\	.	4e\	.	4ee\	.	4gg\	.
.	.	.	.	8aa\J	.	.	.	.	.	.	.
!	!	!LO:LB:g=original	!	!	!	!	!	!	!	!	!
=193	=193	=193	=193	=193	=193	=193	=193	=193	=193	=193	=193
!	!	!	!	!	!	!	!	!	!	!	!
!	!LO:DY:a:t=f.	!	!LO:DY:a:t=f.	!	!	!	!	!	!	!	!
8G\L	f	8g/L	f	8gg\L	.	4e\	.	4ee\	.	4gg\	.
8F#\	.	8f#/	.	8ff#\	.	.	.	.	.	.	.
8E\	.	8e/	.	8ee\	.	4r	.	4r	.	4r	.
8D\	.	8d/	.	8dd\	.	.	.	.	.	.	.
!	!	!	!	!	!	!	!	!	!	!LO:TX:a:t=t	!
!	!	!	!	!	!	!	!LO:DY:t=f&colon;	!	!	!	!
8C#\	.	8e/	.	8cc#\	.	4e\	f	4a/	.	4a/	.
8AA\J	.	8g/J	.	8ee\J	.	.	.	.	.	.	.
=194	=194	=194	=194	=194	=194	=194	=194	=194	=194	=194	=194
*tremolo	*	*Xtremolo	*	*	*	*	*	*	*	*	*
!	!	!LO:TX:t=P:problem=dźwięk niewidoczny	!	!	!	!	!	!	!	!	!
!	!LO:DY:t=f.	!	!	!	!LO:DY:t=f.	!	!	!	!LO:DY:t=f.	!	!LO:DY:t=f.
8D\L	f	2ryy	.	4f#\ 4dd	f	2d\	.	4f#/	f	4dd\	f
8D\J	.	.	.	.	.	.	.	.	.	.	.
*Xtremolo	*	*	*	*	*	*	*	*	*	*	*
*tremolo	*	*	*	*	*	*	*	*	*	*	*
8d\L	.	.	.	4f#\ 4dd	.	.	.	4f#/	.	4dd\	.
8d\J	.	.	.	.	.	.	.	.	.	.	.
*Xtremolo	*	*	*	*	*	*	*	*	*	*	*
*tremolo	*	*	*	*	*	*	*	*	*	*	*
8c#\L	.	8e/L 8a	.	4a\ 4ee	.	4e\	.	4a/	.	4ee\	.
8c#\J	.	8e/J 8a	.	.	.	.	.	.	.	.	.
*Xtremolo	*	*	*	*	*	*	*	*	*	*	*
=195	=195	=195	=195	=195	=195	=195	=195	=195	=195	=195	=195
*tremolo	*	*tremolo	*	*	*	*	*	*	*	*	*
8d\L	.	8f#/L 8a	.	2a\ 2ff#	.	2f#\	.	2dd\	.	2ff#\	.
8d\J	.	8f#/J 8a	.	.	.	.	.	.	.	.	.
*Xtremolo	*	*Xtremolo	*	*	*	*	*	*	*	*	*
*tremolo	*	*tremolo	*	*	*	*	*	*	*	*	*
8B\L	.	8dd\L	.	.	.	.	.	.	.	.	.
8B\J	.	8dd\J	.	.	.	.	.	.	.	.	.
*Xtremolo	*	*Xtremolo	*	*	*	*	*	*	*	*	*
*tremolo	*	*tremolo	*	*	*	*	*	*	*	*	*
8G\L	.	8b\L	.	4gg\	.	4g\	.	4ee\	.	4gg\	.
8G\J	.	8b\J	.	.	.	.	.	.	.	.	.
*Xtremolo	*	*Xtremolo	*	*	*	*	*	*	*	*	*
=196	=196	=196	=196	=196	=196	=196	=196	=196	=196	=196	=196
*tremolo	*	*	*	*	*	*	*	*	*	*	*
!	!	!LO:TX:t=P:problem=mixed beam	!	!	!	!	!	!	!	!	!
8A\L	.	8cc#\L	.	4ee\	.	4e\	.	4cc#\	.	4ee\	.
8A\J	.	8e\	.	.	.	.	.	.	.	.	.
*Xtremolo	*	*	*	*	*	*	*	*	*	*	*
*tremolo	*	*	*	*	*	*	*	*	*	*	*
8E\L	.	8c#\	.	4ee\	.	4e\	.	4cc#\	.	4ee\	.
8E\J	.	8e\	.	.	.	.	.	.	.	.	.
*Xtremolo	*	*	*	*	*	*	*	*	*	*	*
*tremolo	*	*	*	*	*	*	*	*	*	*	*
8C#\L	.	8c#\	.	4ee\	.	4e\	.	4cc#\	.	4ee\	.
8C#\J	.	8e\J	.	.	.	.	.	.	.	.	.
*Xtremolo	*	*	*	*	*	*	*	*	*	*	*
!	!	!	!	!	!	!LO:LB:g=original	!	!	!	!	!
=197	=197	=197	=197	=197	=197	=197	=197	=197	=197	=197	=197
*tremolo	*	*	*	*	*	*	*	*	*	*	*
8AA/L	.	8A/L	.	8ee\L	.	2e\	.	4cc#\	.	4ee\	.
8AA/J	.	8g/	.	8a\	.	.	.	.	.	.	.
*Xtremolo	*	*	*	*	*	*	*	*	*	*	*
*tremolo	*	*	*	*	*	*	*	*	*	*	*
8C#/L	.	8e/	.	8cc#\	.	.	.	4ee\	.	4gg\	.
8C#/J	.	8g/	.	8ee\	.	.	.	.	.	.	.
*Xtremolo	*	*	*	*	*	*	*	*	*	*	*
*tremolo	*	*	*	*	*	*	*	*	*	*	*
!	!	!	!	!	!	!	!	!	!LO:DY:a	!	!
8AA/L	.	8e/	.	8gg\	.	4e\	.	4cc#\	f	4ee\	.
8AA/J	.	8g/J	.	8ee\J	.	.	.	.	.	.	.
*Xtremolo	*	*	*	*	*	*	*	*	*	*	*
=198	=198	=198	=198	=198	=198	=198	=198	=198	=198	=198	=198
*tremolo	*	*	*	*	*	*	*	*	*	*	*
8D\L	.	8f#/L	.	4dd\	.	4d\	.	4a/	.	4dd\	.
8D\J	.	8a/J	.	.	.	.	.	.	.	.	.
*Xtremolo	*	*	*	*	*	*	*	*	*	*	*
*tremolo	*	*	*	*	*	*	*	*	*	*	*
8d\L	.	8f#/L	.	4dd\	.	4d\	.	4f#/	.	4dd\	.
8d\J	.	8a/J	.	.	.	.	.	.	.	.	.
*Xtremolo	*	*	*	*	*	*	*	*	*	*	*
*tremolo	*	*	*	*	*	*	*	*	*	*	*
8c#\L	.	8g/L	.	4ee\	.	4e\	.	4a/	.	4ee\	.
8c#\J	.	8a/J	.	.	.	.	.	.	.	.	.
*Xtremolo	*	*	*	*	*	*	*	*	*	*	*
!	!	!	!	!LO:LB:g=original	!	!	!	!	!	!	!
=199	=199	=199	=199	=199	=199	=199	=199	=199	=199	=199	=199
*tremolo	*	*	*	*	*	*	*	*	*	*	*
8d\L	.	8f#/L	.	2ff#\	.	2f#\	.	2dd\	.	2ff#\	.
8d\J	.	8a/J	.	.	.	.	.	.	.	.	.
*Xtremolo	*	*	*	*	*	*	*	*	*	*	*
*tremolo	*	*tremolo	*	*	*	*	*	*	*	*	*
8B\L	.	8dd\L	.	.	.	.	.	.	.	.	.
8B\J	.	8dd\J	.	.	.	.	.	.	.	.	.
*Xtremolo	*	*Xtremolo	*	*	*	*	*	*	*	*	*
*tremolo	*	*tremolo	*	*	*	*	*	*	*	*	*
8G\L	.	8b\L	.	4gg\	.	4g\	.	4ee\	.	4gg\	.
8G\J	.	8b\J	.	.	.	.	.	.	.	.	.
*Xtremolo	*	*Xtremolo	*	*	*	*	*	*	*	*	*
=200	=200	=200	=200	=200	=200	=200	=200	=200	=200	=200	=200
*tremolo	*	*	*	*	*	*	*	*	*	*	*
!	!	!LO:TX:t=P:problem=mixed beam	!	!	!	!	!	!	!	!	!
8A\L	.	8cc#\L	.	4ee\	.	4e\	.	4cc#\	.	4ee\	.
8A\J	.	8e\	.	.	.	.	.	.	.	.	.
*Xtremolo	*	*	*	*	*	*	*	*	*	*	*
*tremolo	*	*	*	*	*	*	*	*	*	*	*
8E\L	.	8c#\	.	4ee\	.	4e\	.	4cc#\	.	4ee\	.
8E\J	.	8e\	.	.	.	.	.	.	.	.	.
*Xtremolo	*	*	*	*	*	*	*	*	*	*	*
*tremolo	*	*	*	*	*	*	*	*	*	*	*
8C#\L	.	8c#\	.	4ee\	.	4e\	.	4cc#\	.	4ee\	.
8C#\J	.	8e\J	.	.	.	.	.	.	.	.	.
*Xtremolo	*	*	*	*	*	*	*	*	*	*	*
!LO:LB:g=original	!	!LO:LB:g=original	!	!	!	!	!	!	!	!	!
=201	=201	=201	=201	=201	=201	=201	=201	=201	=201	=201	=201
*tremolo	*	*	*	*	*	*	*	*	*	*	*
8AA/L	.	8c#/L	.	8ee\L	.	4e\	.	4cc#\	.	4ee\	.
8AA/J	.	8e/	.	8ff#\	.	.	.	.	.	.	.
*Xtremolo	*	*	*	*	*	*	*	*	*	*	*
*tremolo	*	*	*	*	*	*	*	*	*	*	*
8C#/L	.	8g/	.	8gg\	.	4r	.	4r	.	4r	.
8C#/J	.	8e/	.	8ff#\	.	.	.	.	.	.	.
*Xtremolo	*	*	*	*	*	*	*	*	*	*	*
*tremolo	*	*	*	*	*	*	*	*	*	*	*
8AA/L	.	8g/	.	8gg\	.	4r	.	4r	.	4r	.
8AA/J	.	8e/J	.	8gg#X\J	.	.	.	.	.	.	.
*Xtremolo	*	*	*	*	*	*	*	*	*	*	*
!	!	!	!	!	!	!	!	!	!	!LO:LB:g=original	!
=202	=202	=202	=202	=202	=202	=202	=202	=202	=202	=202	=202
*	*	*^	*	*	*	*	*	*	*	*	*
8D\L	.	8a/	2.d/	.	4aa\	.	2.d\	.	2.dd\	.	2.aa\	.
8F#\	.	4a/	.	.	.	.	.	.	.	.	.	.
8F#\	.	.	.	.	4aa\	.	.	.	.	.	.	.
8F#\	.	4a/	.	.	.	.	.	.	.	.	.	.
8F#\	.	.	.	.	4ddd\	.	.	.	.	.	.	.
8F#\J	.	8a/	.	.	.	.	.	.	.	.	.	.
*	*	*v	*v	*	*	*	*	*	*	*	*	*
=203	=203	=203	=203	=203	=203	=203	=203	=203	=203	=203	=203
*tremolo	*	*	*	*	*	*	*	*	*	*	*
*	*	*^	*	*	*	*	*	*	*	*	*
8G\L	.	8b/	2.d/	.	2bb\	.	2.d\	.	2.dd\	.	2.bb\	.
8G\	.	4b/	.	.	.	.	.	.	.	.	.	.
8G\	.	.	.	.	.	.	.	.	.	.	.	.
8G\	.	4b/	.	.	.	.	.	.	.	.	.	.
8G\	.	.	.	.	4ddd\	.	.	.	.	.	.	.
8G\J	.	8b/	.	.	.	.	.	.	.	.	.	.
*	*	*v	*v	*	*	*	*	*	*	*	*	*
!	!	!	!	!	!	!	!	!	!LO:LB:g=original	!	!
*Xtremolo	*	*	*	*	*	*	*	*	*	*	*
=204	=204	=204	=204	=204	=204	=204	=204	=204	=204	=204	=204
*tremolo	*	*	*	*	*	*	*	*	*	*	*
8A\L	.	8a/	.	(4ff#\	.	4f#\	.	4dd\	.	4ff#\	.
8A\	.	4g/	.	.	.	.	.	.	.	.	.
8A\	.	.	.	4gg\)	.	4e\	.	4ee\	.	4gg\	.
8A\	.	4g/	.	.	.	.	.	.	.	.	.
8A\	.	.	.	4ee\	.	4e\	.	4ee\	.	4gg\	.
8A\J	.	8g/	.	.	.	.	.	.	.	.	.
*Xtremolo	*	*	*	*	*	*	*	*	*	*	*
=205	=205	=205	=205	=205	=205	=205	=205	=205	=205	=205	=205
*tremolo	*	*	*	*	*	*	*	*	*	*	*
8B\L	.	8f#/	.	4dd\	.	4d\	.	4dd\	.	4ff#\	.
8B\	.	4f#/	.	.	.	.	.	.	.	.	.
8B\	.	.	.	4dd\	.	4d\	.	4dd\	.	4ff#\	.
8B\	.	4f#/	.	.	.	.	.	.	.	.	.
8B\	.	.	.	4dd\	.	4d\	.	4dd\	.	4aa\	.
8B\J	.	8f#/	.	.	.	.	.	.	.	.	.
*Xtremolo	*	*	*	*	*	*	*	*	*	*	*
=206	=206	=206	=206	=206	=206	=206	=206	=206	=206	=206	=206
*tremolo	*	*	*	*	*	*	*	*	*	*	*
*	*	*^	*	*	*	*	*	*	*	*	*
8F#\L	.	8a/	2.d/	.	4aa\	.	4d\	.	4dd\	.	4aa\	.
8F#\	.	4a/	.	.	.	.	.	.	.	.	.	.
8F#\	.	.	.	.	4aa\	.	4d\	.	4dd\	.	4aa\	.
8F#\	.	4a/	.	.	.	.	.	.	.	.	.	.
8F#\	.	.	.	.	4ddd\	.	4d\	.	4dd\	.	4aa\	.
8F#\J	.	8a/	.	.	.	.	.	.	.	.	.	.
*	*	*v	*v	*	*	*	*	*	*	*	*	*
*Xtremolo	*	*	*	*	*	*	*	*	*	*	*
=207	=207	=207	=207	=207	=207	=207	=207	=207	=207	=207	=207
*tremolo	*	*	*	*	*	*	*	*	*	*	*
*	*	*^	*	*	*	*	*	*	*	*	*
8G\L	.	8b/	2.d/	.	4bb\	.	4d\	.	4dd\	.	4bb\	.
8G\	.	4b/	.	.	.	.	.	.	.	.	.	.
8G\	.	.	.	.	4bb\	.	4d\	.	4dd\	.	4bb\	.
8G\	.	4b/	.	.	.	.	.	.	.	.	.	.
8G\	.	.	.	.	4ddd\	.	4d\	.	4dd\	.	4bb\	.
8G\J	.	8b/	.	.	.	.	.	.	.	.	.	.
*	*	*v	*v	*	*	*	*	*	*	*	*	*
*Xtremolo	*	*	*	*	*	*	*	*	*	*	*
!	!	!	!	!	!LO:LB:g=original	!	!	!	!	!	!
=208	=208	=208	=208	=208	=208	=208	=208	=208	=208	=208	=208
*tremolo	*	*	*	*	*	*	*	*	*	*	*
8A\L	.	8ff#\L	.	8aa\L	.	8a\L	.	4ff#\	.	4aa\	.
8A\	.	8ee\J	.	8gg\J	.	8g\J	.	.	.	.	.
*	*	*tremolo	*	*	*	*	*	*	*	*	*
8A\	.	8dd\L	.	4ff#\	.	4f#\	.	4dd\	.	4ff#\	.
8A\	.	8dd\J	.	.	.	.	.	.	.	.	.
*	*	*Xtremolo	*	*	*	*	*	*	*	*	*
*	*	*tremolo	*	*	*	*	*	*	*	*	*
8A\	.	8g/L	.	4ee\	.	4e\	.	4cc#\	.	4ee\	.
8A\J	.	8g/J	.	.	.	.	.	.	.	.	.
*Xtremolo	*	*Xtremolo	*	*	*	*	*	*	*	*	*
!	!	!	!	!	!	!LO:LB:g=original	!	!	!	!	!
=209	=209	=209	=209	=209	=209	=209	=209	=209	=209	=209	=209
*tremolo	*	*tremolo	*	*	*	*	*	*	*	*	*
8B\L	.	8f#/L	.	4dd\	.	2d\	.	2a/	.	2ff#\	.
8B\J	.	8f#/	.	.	.	.	.	.	.	.	.
*Xtremolo	*	*	*	*	*	*	*	*	*	*	*
*tremolo	*	*	*	*	*	*	*	*	*	*	*
8B\L	.	8f#/	.	4dd\	.	.	.	.	.	.	.
8B\J	.	8f#/J	.	.	.	.	.	.	.	.	.
*Xtremolo	*	*Xtremolo	*	*	*	*	*	*	*	*	*
*tremolo	*	*tremolo	*	*	*	*	*	*	*	*	*
8B\L	.	8a/L	.	4ee\	.	4e\	.	4a/	.	4ee\	.
8B\J	.	8a/J	.	.	.	.	.	.	.	.	.
*Xtremolo	*	*Xtremolo	*	*	*	*	*	*	*	*	*
!	!	!LO:LB:g=original	!	!	!	!	!	!	!	!	!
=210	=210	=210	=210	=210	=210	=210	=210	=210	=210	=210	=210
*tremolo	*	*tremolo	*	*	*	*	*	*	*	*	*
8d\L	.	8a/L	.	4ff#\	.	2f#\	.	2a/	.	2ff#\	.
8d\J	.	8a/	.	.	.	.	.	.	.	.	.
*Xtremolo	*	*	*	*	*	*	*	*	*	*	*
*tremolo	*	*	*	*	*	*	*	*	*	*	*
8d\L	.	8a/	.	4ff#\	.	.	.	.	.	.	.
8d\J	.	8a/J	.	.	.	.	.	.	.	.	.
*Xtremolo	*	*Xtremolo	*	*	*	*	*	*	*	*	*
*tremolo	*	*tremolo	*	*	*	*	*	*	*	*	*
8B\L	.	8dd\L	.	4gg#X\	.	4e\	.	4dd\	.	4ee\	.
8B\J	.	8dd\J	.	.	.	.	.	.	.	.	.
*Xtremolo	*	*Xtremolo	*	*	*	*	*	*	*	*	*
!	!	!	!	!LO:LB:g=original	!	!	!	!	!	!	!
=211	=211	=211	=211	=211	=211	=211	=211	=211	=211	=211	=211
*tremolo	*	*tremolo	*	*	*	*	*	*	*	*	*
8A\L	.	8cc#\L	.	4aa\	.	4e\	.	4cc#\	.	4ee\	.
8A\J	.	8cc#\J	.	.	.	.	.	.	.	.	.
*Xtremolo	*	*Xtremolo	*	*	*	*	*	*	*	*	*
*tremolo	*	*tremolo	*	*	*	*	*	*	*	*	*
8c#\L	.	8ee\L	.	4aa\	.	4e\	.	4cc#\	.	4ee\	.
8c#\J	.	8ee\J	.	.	.	.	.	.	.	.	.
*Xtremolo	*	*Xtremolo	*	*	*	*	*	*	*	*	*
*tremolo	*	*tremolo	*	*	*	*	*	*	*	*	*
8A\L	.	8cc#\L	.	4aa\	.	4e\	.	4cc#\	.	4ee\	.
8A\J	.	8cc#\J	.	.	.	.	.	.	.	.	.
*Xtremolo	*	*Xtremolo	*	*	*	*	*	*	*	*	*
=212	=212	=212	=212	=212	=212	=212	=212	=212	=212	=212	=212
*tremolo	*	*tremolo	*	*	*	*	*	*	*	*	*
8D\L	.	8a/L	.	2ff#\	.	2f#\	.	2a/	.	2ff#\	.
8D\J	.	8a/	.	.	.	.	.	.	.	.	.
*Xtremolo	*	*	*	*	*	*	*	*	*	*	*
*tremolo	*	*	*	*	*	*	*	*	*	*	*
8d\L	.	8a/	.	.	.	.	.	.	.	.	.
8d\J	.	8a/J	.	.	.	.	.	.	.	.	.
*Xtremolo	*	*Xtremolo	*	*	*	*	*	*	*	*	*
*tremolo	*	*tremolo	*	*	*	*	*	*	*	*	*
8B\L	.	8dd\L	.	4gg\	.	4g\	.	4dd\	.	4gg\	.
8B\J	.	8dd\J	.	.	.	.	.	.	.	.	.
*Xtremolo	*	*Xtremolo	*	*	*	*	*	*	*	*	*
!LO:LB:g=original	!	!	!	!	!	!	!	!	!	!	!
=213	=213	=213	=213	=213	=213	=213	=213	=213	=213	=213	=213
*tremolo	*	*tremolo	*	*	*	*	*	*	*	*	*
8c#\L	.	8g/L	.	4ee\	.	2e\	.	2g/	.	2ee\	.
8c#\	.	8g/	.	.	.	.	.	.	.	.	.
8c#\	.	8g/	.	4ee\	.	.	.	.	.	.	.
8c#\J	.	8g/J	.	.	.	.	.	.	.	.	.
*Xtremolo	*	*Xtremolo	*	*	*	*	*	*	*	*	*
*tremolo	*	*tremolo	*	*	*	*	*	*	*	*	*
8A\L	.	8cc#\L	.	4ff#\	.	4f#\	.	4cc#\	.	4ff#\	.
8A\J	.	8cc#\J	.	.	.	.	.	.	.	.	.
*Xtremolo	*	*Xtremolo	*	*	*	*	*	*	*	*	*
!	!	!	!	!	!	!	!	!	!	!LO:LB:g=original	!
=214	=214	=214	=214	=214	=214	=214	=214	=214	=214	=214	=214
*tremolo	*	*tremolo	*	*	*	*	*	*	*	*	*
8B\L	.	8f#/L	.	4dd\	.	4d\	.	4f#/	.	4dd\	.
8B\	.	8f#/	.	.	.	.	.	.	.	.	.
8B\	.	8f#/	.	4dd\	.	4d\	.	4f#/	.	4dd\	.
8B\J	.	8f#/J	.	.	.	.	.	.	.	.	.
*Xtremolo	*	*Xtremolo	*	*	*	*	*	*	*	*	*
*tremolo	*	*tremolo	*	*	*	*	*	*	*	*	*
!	!	!	!	!	!	!	!	!LO:TX:a:t=h	!	!	!
8G\L	.	8b\L	.	4ee\	.	4e\	.	4b/	.	4ee\	.
8G\J	.	8b\J	.	.	.	.	.	.	.	.	.
*Xtremolo	*	*Xtremolo	*	*	*	*	*	*	*	*	*
!	!	!	!	!	!	!	!	!LO:LB:g=original	!	!	!
=215	=215	=215	=215	=215	=215	=215	=215	=215	=215	=215	=215
4A\	.	4e/	.	8cc#\L	.	4e\	.	4cc#\	.	4ee\	.
.	.	.	.	8a\	.	.	.	.	.	.	.
4AA/	.	4e/	.	8cc#\	.	4e\	.	4cc#\	.	4ff#\	.
.	.	.	.	8ee\	.	.	.	.	.	.	.
4A\	.	4e/ 4a	.	8aa\	.	4e\	.	4cc#\	.	4aa\	.
.	.	.	.	8gg\J	.	.	.	.	.	.	.
=216	=216	=216	=216	=216	=216	=216	=216	=216	=216	=216	=216
4D\	.	4f#/ 4a	.	4ff#\	.	4f#\	.	4a/	.	4ff#\	.
4d\	.	4f#/ 4a	.	8ff#\L	.	4g\	.	4a/	.	4ff#\	.
.	.	.	.	8ee\	.	.	.	.	.	.	.
4B\	.	4dd\	.	8gg\	.	4r	.	4dd\	.	4gg\	.
.	.	.	.	8ff#\J	.	.	.	.	.	.	.
=217	=217	=217	=217	=217	=217	=217	=217	=217	=217	=217	=217
4C#/	.	4g/	.	4ee\	.	4e\	.	4g/	.	4ee\	.
4c#\	.	4g/	.	8ee\L	.	4e\	.	4g/	.	4ee\	.
.	.	.	.	8cc#\	.	.	.	.	.	.	.
4A\	.	4cc#\	.	8ff#\	.	4r	.	4cc#\	.	4ff#\	.
.	.	.	.	8ee\J	.	.	.	.	.	.	.
!	!	!	!	!LO:LB:g=original	!	!	!	!	!	!	!
=218	=218	=218	=218	=218	=218	=218	=218	=218	=218	=218	=218
4BB/	.	4f#/	.	8dd\L	.	4d\	.	4f#/	.	4dd\	.
.	.	.	.	8cc#\	.	.	.	.	.	.	.
4B\	.	4f#/	.	8dd\	.	4d\	.	4f#/	.	4dd\	.
.	.	.	.	8b\	.	.	.	.	.	.	.
4G\	.	4b\	.	8ee\	.	4e\	.	4b/	.	4ee\	.
.	.	.	.	8dd\J	.	.	.	.	.	.	.
!	!	!LO:LB:g=original	!	!	!	!	!	!	!	!	!
=219	=219	=219	=219	=219	=219	=219	=219	=219	=219	=219	=219
4A\	.	4e/	.	8cc#\L	.	4e\	.	4cc#\	.	4ee\	.
.	.	.	.	8dd\	.	.	.	.	.	.	.
4AA/	.	4r	.	8ee\	.	4r	.	4r	.	4r	.
.	.	.	.	8ff#\	.	.	.	.	.	.	.
4C#/	.	4e/ 4a	.	8gg\	.	4e\	.	4cc#\	.	4ee\	.
.	.	.	.	8ee\J	.	.	.	.	.	.	.
!	!	!	!	!	!	!LO:LB:g=original	!	!	!	!	!
=220	=220	=220	=220	=220	=220	=220	=220	=220	=220	=220	=220
8D\L	.	4a/	.	8ff#\L	.	4f#\	.	4a/	.	4ff#\	.
8E\	.	.	.	8gg\	.	.	.	.	.	.	.
8F#\	.	4r	.	8aa\	.	4d\	.	4a/	.	4dd\	.
8G\	.	.	.	8bb\	.	.	.	.	.	.	.
8A\	.	4d/ 4a	.	8cccn\	.	4d\	.	4a/	.	4dd\	.
8F#\J	.	.	.	8aa\J	.	.	.	.	.	.	.
=221	=221	=221	=221	=221	=221	=221	=221	=221	=221	=221	=221
*tremolo	*	*	*	*	*	*	*	*	*	*	*
8G\L	.	8b\	.	4bb\	.	4d\	.	4b/	.	4dd\	.
8G\	.	4b\	.	.	.	.	.	.	.	.	.
8G\	.	.	.	4bb\	.	4r	.	4r	.	4r	.
8G\J	.	4b\	.	.	.	.	.	.	.	.	.
*Xtremolo	*	*	*	*	*	*	*	*	*	*	*
*tremolo	*	*	*	*	*	*	*	*	*	*	*
8F#\L	.	.	.	4ff#\	.	4r	.	4b/	.	4ff#\	.
8F#\J	.	8b\	.	.	.	.	.	.	.	.	.
*Xtremolo	*	*	*	*	*	*	*	*	*	*	*
=222	=222	=222	=222	=222	=222	=222	=222	=222	=222	=222	=222
*tremolo	*	*	*	*	*	*	*	*	*	*	*
!	!	!	!	!	!	!LO:TX:a:t=1	!	!	!	!	!
8E\L	.	8b\	.	2gg\	.	2.rA	.	2ee\	.	2gg\	.
8E\	.	4b\	.	.	.	.	.	.	.	.	.
8E\	.	.	.	.	.	.	.	.	.	.	.
8E\J	.	4b\	.	.	.	.	.	.	.	.	.
*Xtremolo	*	*	*	*	*	*	*	*	*	*	*
*tremolo	*	*	*	*	*	*	*	*	*	*	*
8D\L	.	.	.	4gg#X\	.	.	.	4ee\	.	4gg#X\	.
8D\J	.	8b\	.	.	.	.	.	.	.	.	.
*Xtremolo	*	*	*	*	*	*	*	*	*	*	*
!LO:LB:g=original	!	!	!	!	!	!	!	!	!	!	!
=223	=223	=223	=223	=223	=223	=223	=223	=223	=223	=223	=223
*tremolo	*	*	*	*	*	*	*	*	*	*	*
8C#/L	.	8a/	.	4aa\	.	4e\	.	2ee\	.	2aa\	.
8C#/J	.	4a/	.	.	.	.	.	.	.	.	.
*Xtremolo	*	*	*	*	*	*	*	*	*	*	*
*tremolo	*	*	*	*	*	*	*	*	*	*	*
8AA/L	.	.	.	4aa\	.	4e\	.	.	.	.	.
8AA/J	.	4a/	.	.	.	.	.	.	.	.	.
*Xtremolo	*	*	*	*	*	*	*	*	*	*	*
*tremolo	*	*	*	*	*	*	*	*	*	*	*
8C#/L	.	.	.	4ee\	.	4e\	.	4cc#\	.	4ee\	.
8C#/J	.	8a/	.	.	.	.	.	.	.	.	.
*Xtremolo	*	*	*	*	*	*	*	*	*	*	*
=224	=224	=224	=224	=224	=224	=224	=224	=224	=224	=224	=224
*tremolo	*	*	*	*	*	*	*	*	*	*	*
8D\L	.	8a/	.	2ff#\	.	4f#\	.	2dd\	.	2ff#\	.
8D\J	.	4a/	.	.	.	.	.	.	.	.	.
*Xtremolo	*	*	*	*	*	*	*	*	*	*	*
*tremolo	*	*	*	*	*	*	*	*	*	*	*
8d\L	.	.	.	.	.	4d\	.	.	.	.	.
8d\J	.	4dd\	.	.	.	.	.	.	.	.	.
*Xtremolo	*	*	*	*	*	*	*	*	*	*	*
*tremolo	*	*	*	*	*	*	*	*	*	*	*
8B\L	.	.	.	4gg\	.	4d\	.	4dd\	.	4gg\	.
8B\J	.	8dd\	.	.	.	.	.	.	.	.	.
*Xtremolo	*	*	*	*	*	*	*	*	*	*	*
!	!	!	!	!	!	!	!	!	!	!LO:LB:g=original	!
=225	=225	=225	=225	=225	=225	=225	=225	=225	=225	=225	=225
*tremolo	*	*	*	*	*	*	*	*	*	*	*
*	*	*^	*	*	*	*	*	*	*	*	*
8F#\L	.	8dd/	2.d/	.	4aa\	.	2.d\	.	4dd\	.	4aa\	.
8F#\J	.	4dd/	.	.	.	.	.	.	.	.	.	.
*Xtremolo	*	*	*	*	*	*	*	*	*	*	*	*
*tremolo	*	*	*	*	*	*	*	*	*	*	*	*
8D\L	.	.	.	.	4aa\	.	.	.	4b/	.	4aa\	.
8D\J	.	4dd/	.	.	.	.	.	.	.	.	.	.
*Xtremolo	*	*	*	*	*	*	*	*	*	*	*	*
*tremolo	*	*	*	*	*	*	*	*	*	*	*	*
8F#\L	.	.	.	.	4ddd\	.	.	.	4a/	.	4dd\	.
8F#\J	.	8dd/	.	.	.	.	.	.	.	.	.	.
*	*	*v	*v	*	*	*	*	*	*	*	*	*
*Xtremolo	*	*	*	*	*	*	*	*	*	*	*
!	!	!	!	!	!	!	!	!	!LO:LB:g=original	!	!
=226	=226	=226	=226	=226	=226	=226	=226	=226	=226	=226	=226
*tremolo	*	*	*	*	*	*	*	*	*	*	*
*	*	*^	*	*	*	*	*	*	*	*	*
8G\L	.	8dd/	2.d/	.	4bb\	.	2.d\	.	2b/	.	2.dd\	.
8G\J	.	4dd/	.	.	.	.	.	.	.	.	.	.
*Xtremolo	*	*	*	*	*	*	*	*	*	*	*	*
*tremolo	*	*	*	*	*	*	*	*	*	*	*	*
8G\L	.	.	.	.	4bb\	.	.	.	.	.	.	.
8G\J	.	4dd/	.	.	.	.	.	.	.	.	.	.
*Xtremolo	*	*	*	*	*	*	*	*	*	*	*	*
*tremolo	*	*	*	*	*	*	*	*	*	*	*	*
8A\L	.	.	.	.	4aa\	.	.	.	4a/	.	.	.
8A\J	.	8dd/	.	.	.	.	.	.	.	.	.	.
*	*	*v	*v	*	*	*	*	*	*	*	*	*
*Xtremolo	*	*	*	*	*	*	*	*	*	*	*
!	!	!	!	!	!LO:LB:g=original	!	!	!	!	!	!
=227	=227	=227	=227	=227	=227	=227	=227	=227	=227	=227	=227
*tremolo	*	*	*	*	*	*	*	*	*	*	*
*	*	*^	*	*	*	*	*	*	*	*	*
8B\L	.	8dd/	2.e/	.	4gg#X\	.	4e\	.	4dd\	.	4gg#X\	.
8B\	.	4dd/	.	.	.	.	.	.	.	.	.	.
8B\	.	.	.	.	4gg#\	.	4e\	.	4dd\	.	4gg#\	.
8B\	.	4dd/	.	.	.	.	.	.	.	.	.	.
8B\	.	.	.	.	4gg#\	.	4e\	.	4dd\	.	4gg#\	.
8B\J	.	8dd/	.	.	.	.	.	.	.	.	.	.
*	*	*v	*v	*	*	*	*	*	*	*	*	*
*Xtremolo	*	*	*	*	*	*	*	*	*	*	*
!	!	!LO:LB:g=original	!	!	!	!	!	!	!	!	!
=228	=228	=228	=228	=228	=228	=228	=228	=228	=228	=228	=228
!	!	!LO:N:vis=4	!	!	!	!	!	!	!	!	!
4A\	.	4e/ 4cc#	.	8aa\L	.	4e\	.	4cc#\	.	4aa\	.
.	.	.	.	8ee\	.	.	.	.	.	.	.
4r	.	4r	.	8cc#X\	.	4r	.	4r	.	4r	.
.	.	.	.	8ee\	.	.	.	.	.	.	.
4E\	.	4e/ 4dd	.	8ff#\	.	4e\	.	4dd\	.	4gg#X\	.
.	.	.	.	8gg#X\J	.	.	.	.	.	.	.
=229	=229	=229	=229	=229	=229	=229	=229	=229	=229	=229	=229
4A\	.	4e/ 4cc#	.	8aa\L	.	4e\	.	4cc#\	.	4aa\	.
.	.	.	.	8ee\	.	.	.	.	.	.	.
4r	.	4r	.	8dd#X\	.	4r	.	4r	.	4r	.
.	.	.	.	8ee\	.	.	.	.	.	.	.
4E\	.	4e/ 4dd	.	8ff#\	.	4e\	.	4dd\	.	4gg#X\	.
.	.	.	.	8gg#X\J	.	.	.	.	.	.	.
=230	=230	=230	=230	=230	=230	=230	=230	=230	=230	=230	=230
4A\	.	4e/ 4cc#	.	4aa\	.	4e\	.	4cc#\	.	4aa\	.
4E\	.	4c#/ 4e	.	(8gg#X\L	.	4e\	.	4cc#\	.	4aa\	.
.	.	.	.	8aa\	.	.	.	.	.	.	.
4C#/	.	4c#/ 4e	.	8gg#\	.	4e\	.	4cc#\	.	4aa\	.
.	.	.	.	8aa\J)	.	.	.	.	.	.	.
=231	=231	=231	=231	=231	=231	=231	=231	=231	=231	=231	=231
!	!	!	!LO:DY:a	!	!	!	!	!	!	!	!
!	!	!	!LO:DY:t=p.	!	!	!	!	!	!	!	!
4AA/	.	(8e/L	p	4a/	.	4e\	.	4cc#\	.	4aa\	.
.	.	8a/)	.	.	.	.	.	.	.	.	.
4r	.	8a/	.	4r	.	4r	.	4r	.	4r	.
.	.	8a/	.	.	.	.	.	.	.	.	.
4r	.	8a/	.	4r	.	4r	.	4r	.	4r	.
.	.	8a/J	.	.	.	.	.	.	.	.	.
!	!	!	!	!	!	!LO:LB:g=original	!	!	!	!	!
=232	=232	=232	=232	=232	=232	=232	=232	=232	=232	=232	=232
!LO:TX:a:t=1	!	!	!	!LO:TX:a:t=3	!	!LO:TX:a:t=17	!	!	!	!	!
2.r	.	8g#X/L	.	2.r	.	2.r	.	4r	.	4r	.
.	.	8a/	.	.	.	.	.	.	.	.	.
.	.	8a/	.	.	.	.	.	4r	.	4r	.
.	.	8a/	.	.	.	.	.	.	.	.	.
!	!	!	!	!	!	!	!	!LO:TX:a:t=ſolo	!	!LO:TX:a:t=ſolo	!
.	.	8a/	.	.	.	.	.	8ff#\L	.	8aa\L	.
.	.	8a/J	.	.	.	.	.	8ee\J	.	8gg\J	.
!LO:LB:g=original	!	!	!	!	!	!	!	!	!	!	!
=233	=233	=233	=233	=233	=233	=233	=233	=233	=233	=233	=233
!	!LO:DY:a	!	!	!	!	!	!	!	!	!	!
!	!LO:DY:t=p.	!	!	!	!	!	!	!	!	!	!
4D\	p	8d/L	.	2.r	.	2.r	.	4dd\	.	4ff#'\	.
.	.	8a/	.	.	.	.	.	.	.	.	.
4F#\	.	8d/	.	.	.	.	.	4dd\	.	(4ff#\	.
.	.	8a/	.	.	.	.	.	.	.	.	.
4A\	.	8e/	.	.	.	.	.	4ee\	.	4gg\)	.
.	.	8a/J	.	.	.	.	.	.	.	.	.
=234	=234	=234	=234	=234	=234	=234	=234	=234	=234	=234	=234
8d\L	.	8f#/L	.	2.r	.	2.r	.	2ff#\	.	2aa\	.
8A\	.	8a/	.	.	.	.	.	.	.	.	.
8G\	.	8f#/	.	.	.	.	.	.	.	.	.
8F#\	.	8a/	.	.	.	.	.	.	.	.	.
8E\	.	8d/	.	.	.	.	.	4gg\	.	4bb\	.
8D\J	.	8a/J	.	.	.	.	.	.	.	.	.
!	!	!LO:LB:g=original	!	!	!	!	!	!	!	!LO:LB:g=original	!
=235	=235	=235	=235	=235	=235	=235	=235	=235	=235	=235	=235
*	*	*tremolo	*	*	*	*	*	*	*	*	*
!	!	!	!	!	!LO:DY:t=p.	!	!	!	!	!	!
4AA/	.	8e/L	.	4a/	p	2.r	.	4ee\	.	4gg#X\	.
.	.	8a/	.	.	.	.	.	.	.	.	.
4r	.	8e/	.	4cc#\	.	.	.	4ee\	.	4gg#\	.
.	.	8a/	.	.	.	.	.	.	.	.	.
4r	.	8e/	.	4ee\	.	.	.	4ee\	.	4gg#\	.
.	.	8a/J	.	.	.	.	.	.	.	.	.
!	!	!	!	!	!	!	!	!LO:LB:g=original	!	!	!
=236	=236	=236	=236	=236	=236	=236	=236	=236	=236	=236	=236
!LO:TX:a:t=1	!	!	!	!	!	!	!	!	!	!	!
*	*	*Xtremolo	*	*	*	*	*	*	*	*	*
2.r	.	8e/L	.	(8gg\L	.	2.r	.	4ee\	.	4gg\	.
.	.	8d/	.	8ff#\)	.	.	.	.	.	.	.
.	.	8g/	.	8ee'\	.	.	.	4r	.	4r	.
.	.	8f#/	.	8dd'\	.	.	.	.	.	.	.
.	.	8e/	.	8cc#'\	.	.	.	8ee\L	.	8gg\L	.
.	.	8d/J	.	8b'\J	.	.	.	8dd\J	.	8ff#\J	.
!	!	!	!	!LO:LB:g=original	!	!	!	!	!	!	!
=237	=237	=237	=237	=237	=237	=237	=237	=237	=237	=237	=237
*	*	*tremolo	*	*	*	*	*	*	*	*	*
4AA/	.	8e/L	.	4a/	.	2.r	.	4cc#\	.	4ee\	.
.	.	8a/	.	.	.	.	.	.	.	.	.
4C#/	.	8e/	.	4r	.	.	.	4cc#\	.	4ee\	.
.	.	8a/J	.	.	.	.	.	.	.	.	.
*	*	*Xtremolo	*	*	*	*	*	*	*	*	*
4D/	.	8d/L	.	4r	.	.	.	4dd\	.	4ff#\	.
.	.	8a/J	.	.	.	.	.	.	.	.	.
=238	=238	=238	=238	=238	=238	=238	=238	=238	=238	=238	=238
*	*	*tremolo	*	*	*	*	*	*	*	*	*
!	!	!	!	!LO:TX:a:t=1	!	!	!	!	!	!	!
8G\L	.	8e/L	.	2.r	.	2.r	.	2ee\	.	2gg\	.
8E\	.	8a/	.	.	.	.	.	.	.	.	.
8D\	.	8e/	.	.	.	.	.	.	.	.	.
8C#\	.	8a/	.	.	.	.	.	.	.	.	.
8BB\	.	8e/	.	.	.	.	.	4cc#\	.	4aa\	.
8AA\J	.	8a/J	.	.	.	.	.	.	.	.	.
*	*	*Xtremolo	*	*	*	*	*	*	*	*	*
=239	=239	=239	=239	=239	=239	=239	=239	=239	=239	=239	=239
.	.	.	.	.	.	.	.	8qee/	.	.	.
4D\	.	8d/L	.	4dd\	.	2.r	.	4dd\	.	4ff#\	.
.	.	8a/	.	.	.	.	.	.	.	.	.
4r	.	8f#/	.	4ff#\	.	.	.	4dd\	.	4ff#\	.
.	.	8a/	.	.	.	.	.	.	.	.	.
4r	.	8f#/	.	4aa\	.	.	.	4dd\	.	4ff#\	.
.	.	8a/J	.	.	.	.	.	.	.	.	.
=240	=240	=240	=240	=240	=240	=240	=240	=240	=240	=240	=240
!LO:TX:a:t=1	!	!	!	!	!	!	!	!	!	!	!
2.r	.	8f#/L	.	8aa\L	.	2.r	.	4dd\	.	4ff#\	.
.	.	8g/	.	8bb\	.	.	.	.	.	.	.
.	.	8f#/	.	8aa\	.	.	.	4r	.	4r	.
.	.	8e/	.	8gg\	.	.	.	.	.	.	.
.	.	8d/	.	8ff#\	.	.	.	8f#/L	.	8dd\L	.
.	.	8g/J	.	8ee\J	.	.	.	8a/J	.	8ee\J	.
=241	=241	=241	=241	=241	=241	=241	=241	=241	=241	=241||:	=241
4D\	.	8f#/L	.	4dd\	.	2.r	.	4dd\	.	4ff#'\	.
.	.	8a/	.	.	.	.	.	.	.	.	.
4r	.	8d/	.	4r	.	.	.	4dd\	.	(4ff#\	.
.	.	8a/	.	.	.	.	.	.	.	.	.
4r	.	8e/	.	4r	.	.	.	4ee\	.	4gg\)	.
.	.	8a/J	.	.	.	.	.	.	.	.	.
=242	=242	=242	=242	=242	=242	=242	=242	=242	=242	=242	=242
4AA/	.	8e/L	.	(8gg#X\L	.	2.r	.	2cc#\	.	2ee\	.
.	.	8a/	.	8aa\	.	.	.	.	.	.	.
4A\	.	8g/	.	8bb\	.	.	.	.	.	.	.
.	.	8a/	.	8aa\	.	.	.	.	.	.	.
4A\	.	8e/	.	8gg#X\	.	.	.	4cc#\	.	4aa\	.
.	.	8a/J	.	8aa\J)	.	.	.	.	.	.	.
!LO:LB:g=original	!	!LO:LB:g=original	!	!	!	!	!	!	!	!	!
=243	=243	=243	=243	=243	=243	=243	=243	=243	=243	=243:||	=243
!	!	!	!	!	!	!	!	!	!	!LO:TX:t=P:problem=Takty 243-244 zapisane repetycją	!
4D/	.	8d/L	.	4aa\	.	2.r	.	4dd\	.	4ff#'\yy	.
.	.	8a/	.	.	.	.	.	.	.	.	.
4r	.	8d/	.	4r	.	.	.	4dd\	.	4ff#\yy	.
.	.	8a/	.	.	.	.	.	.	.	.	.
4r	.	8e/	.	4r	.	.	.	4ee\	.	4gg\yy	.
.	.	8a/J	.	.	.	.	.	.	.	.	.
=244	=244	=244	=244	=244	=244	=244	=244	=244	=244	=244	=244
4AA/	.	8e/L	.	(8gg#X\L	.	2.r	.	2cc#\	.	2ee\yy	.
.	.	8a/	.	8aa\	.	.	.	.	.	.	.
4A\	.	8g/	.	8bb\	.	.	.	.	.	.	.
.	.	8a/	.	8aa\	.	.	.	.	.	.	.
4A\	.	8e/	.	8gg#X\	.	.	.	4cc#\	.	4aa\yy	.
.	.	8a/J	.	8aa\J)	.	.	.	.	.	.	.
!	!	!	!	!LO:LB:g=original	!	!	!	!	!	!	!
=245	=245	=245	=245	=245	=245	=245	=245	=245	=245	=245	=245
4D\	.	8d/L	.	4aa\	.	2.r	.	4dd\	.	4ff#\	.
.	.	8a/	.	.	.	.	.	.	.	.	.
4r	.	8d/	.	4r	.	.	.	4ee\	.	4gg\	.
.	.	8a/	.	.	.	.	.	.	.	.	.
4r	.	8e/	.	4r	.	.	.	4ff#\	.	4aa\	.
.	.	8a/J	.	.	.	.	.	.	.	.	.
=246	=246	=246	=246	=246	=246	=246	=246	=246	=246	=246	=246
4d\	.	(4f#/	.	4a#X/	.	2.r	.	(4ff#\	.	4aa#X\	.
!	!	!	!	!LO:TX:a:t=h	!	!	!	!	!	!	!
4r	.	4g/)	.	4b/	.	.	.	4gg\)	.	4aa#\	.
4r	.	4g`/	.	4b/	.	.	.	4gg'\	.	4bb\	.
!	!	!	!	!	!	!	!	!LO:LB:g=original	!	!	!
=247	=247	=247	=247	=247	=247	=247	=247	=247	=247	=247	=247
4d\	.	4fn/	.	4a/	.	2.r	.	(4ffn\	.	4aan\	.
4c#\	.	4e/	.	4g/	.	.	.	4ee\)	.	4gg\	.
4d\	.	4d/	.	4f#/	.	.	.	4dd'\	.	4ff#\	.
=248	=248	=248	=248	=248	=248	=248	=248	=248	=248	=248	=248
4A\	.	4c#/	.	4e/	.	2.r	.	4cc#\	.	4ee\	.
8A\L	.	4r	.	4r	.	.	.	4r	.	4r	.
8G\	.	.	.	.	.	.	.	.	.	.	.
8F#\	.	4a/	.	4a/	.	.	.	4r	.	4r	.
8E\J	.	.	.	.	.	.	.	.	.	.	.
!	!	!	!	!	!	!	!	!	!	!LO:LB:g=original	!
=249	=249	=249	=249	=249	=249	=249	=249	=249	=249	=249	=249
!	!	!	!	!	!	!LO:TX:a:i:t=ſolo	!	!LO:TX:a:t=16	!	!LO:TX:a:t=16	!
4D\	.	8f#/L	.	4dd\	.	4d\	p	2.r	.	2.r	.
.	.	8a/	.	.	.	.	.	.	.	.	.
4r	.	8f#/	.	4dd\	.	4d\	.	.	.	.	.
.	.	8a/	.	.	.	.	.	.	.	.	.
4r	.	8e/	.	4ee\	.	4e\	.	.	.	.	.
.	.	8a/J	.	.	.	.	.	.	.	.	.
=250	=250	=250	=250	=250	=250	=250	=250	=250	=250	=250	=250
4d\	.	8f#/L	.	2ff#\	.	2f#\	.	2.r	.	2.r	.
.	.	8a/	.	.	.	.	.	.	.	.	.
4r	.	8f#/	.	.	.	.	.	.	.	.	.
.	.	8a/	.	.	.	.	.	.	.	.	.
4r	.	8g/	.	4gg\	.	4g\	.	.	.	.	.
.	.	8a/J	.	.	.	.	.	.	.	.	.
!	!	!LO:LB:g=original	!	!	!	!	!	!	!	!	!
=251	=251	=251	=251	=251	=251	=251	=251	=251	=251	=251	=251
*	*	*tremolo	*	*	*	*	*	*	*	*	*
4A\	.	8g/L	.	4ee\	.	4e\	.	2.r	.	2.r	.
.	.	8a/	.	.	.	.	.	.	.	.	.
4A\	.	8g/	.	4ee\	.	4e\	.	.	.	.	.
.	.	8a/	.	.	.	.	.	.	.	.	.
4A\	.	8g/	.	4ee\	.	4e\	.	.	.	.	.
.	.	8a/J	.	.	.	.	.	.	.	.	.
!LO:LB:g=original	!	!	!	!	!	!	!	!	!	!	!
=252	=252	=252	=252	=252	=252	=252	=252	=252	=252	=252	=252
*	*	*Xtremolo	*	*	*	*	*	*	*	*	*
4A\	.	8e/L	.	8ee\L	.	4e\	.	2.r	.	2.r	.
.	.	8a/	.	(8aa\	.	.	.	.	.	.	.
4c#\	.	8e/	.	8gg#X\	.	4r	.	.	.	.	.
.	.	8a/	.	8ggn\	.	.	.	.	.	.	.
4A\	.	8g/	.	8ff#\	.	4r	.	.	.	.	.
.	.	8a/J	.	8ee\J)	.	.	.	.	.	.	.
=253	=253	=253	=253	=253	=253	=253	=253	=253	=253	=253	=253
*	*	*tremolo	*	*	*	*	*	*	*	*	*
4d\	.	8f#/L	.	4dd\	.	4d\	.	2.r	.	2.r	.
.	.	8a/	.	.	.	.	.	.	.	.	.
4r	.	8f#/	.	4dd\	.	4d\	.	.	.	.	.
.	.	8a/J	.	.	.	.	.	.	.	.	.
*	*	*Xtremolo	*	*	*	*	*	*	*	*	*
4r	.	8e/L	.	4ee\	.	4e\	.	.	.	.	.
.	.	8a/J	.	.	.	.	.	.	.	.	.
!	!	!	!	!LO:LB:g=original	!	!	!	!	!	!	!
=254	=254	=254	=254	=254	=254	=254	=254	=254	=254	=254	=254
*	*	*tremolo	*	*	*	*	*	*	*	*	*
4D\	.	8f#/L	.	2ff#\	.	2f#\	.	2.r	.	2.r	.
.	.	8a/	.	.	.	.	.	.	.	.	.
4r	.	8f#/	.	.	.	.	.	.	.	.	.
.	.	8a/J	.	.	.	.	.	.	.	.	.
*	*	*Xtremolo	*	*	*	*	*	*	*	*	*
4r	.	8g/L	.	4gg\	.	4g\	.	.	.	.	.
.	.	8a/J	.	.	.	.	.	.	.	.	.
=255	=255	=255	=255	=255	=255	=255	=255	=255	=255	=255	=255
*	*	*tremolo	*	*	*	*	*	*	*	*	*
4AA/	.	8g/L	.	4ee\	.	4e\	.	2.r	.	2.r	.
.	.	8a/	.	.	.	.	.	.	.	.	.
4A\	.	8g/	.	4ee\	.	4e\	.	.	.	.	.
.	.	8a/	.	.	.	.	.	.	.	.	.
4A\	.	8g/	.	4ee\	.	4e\	.	.	.	.	.
.	.	8a/J	.	.	.	.	.	.	.	.	.
=256	=256	=256	=256	=256	=256	=256	=256	=256	=256	=256	=256
4A\	.	4g/ 4a	.	8ee\L	.	4e\	.	2.r	.	2.r	.
.	.	.	.	(8ff#\	.	.	.	.	.	.	.
4r	.	4r	.	8gg\	.	4r	.	.	.	.	.
.	.	.	.	8gg#X\	.	.	.	.	.	.	.
4A\	.	4g/ 4a	.	8aa\)	.	4e\	.	.	.	.	.
.	.	.	.	8ee\J	.	.	.	.	.	.	.
=257	=257	=257	=257	=257	=257	=257	=257	=257	=257	=257	=257
4d\	.	4f#/ 4a	.	8ff#\L	.	4f#\	.	2.r	.	2.r	.
.	.	.	.	(8ee\	.	.	.	.	.	.	.
4r	.	4r	.	8ff#\	.	4r	.	.	.	.	.
.	.	.	.	8gg#X\	.	.	.	.	.	.	.
4A\	.	4g/ 4a	.	8aa\)	.	4e\	.	.	.	.	.
.	.	.	.	8ee\J	.	.	.	.	.	.	.
=258	=258	=258	=258	=258	=258	=258	=258	=258	=258	=258	=258
4d\	.	4f#/ 4a	.	8ff#\L	.	4f#\	.	2.r	.	2.r	.
.	.	.	.	8gg#X\	.	.	.	.	.	.	.
4r	.	4r	.	8aa\	.	4r	.	.	.	.	.
.	.	.	.	8gg#\	.	.	.	.	.	.	.
4F#\	.	4a/	.	8aa\	.	4d\	.	.	.	.	.
.	.	.	.	8dd\J	.	.	.	.	.	.	.
!	!	!LO:LB:g=original	!	!	!	!	!	!	!	!	!
!	!	!	!	!	!	!LO:LB:g=original	!	!	!	!	!
=259	=259	=259	=259	=259	=259	=259	=259	=259	=259	=259	=259
.	.	.	.	8qff#/	.	.	.	.	.	.	.
4G\	.	4g/	.	4ee\	.	4e\	.	2.r	.	2.r	.
4A\	.	4d/	.	4dd\	.	4f#\	.	.	.	.	.
4AA/	.	4e/	.	4cc#\	.	4e\	.	.	.	.	.
=260	=260	=260	=260	=260	=260	=260	=260	=260	=260	=260	=260
*	*	*tremolo	*	*	*	*	*	*	*	*	*
4D\	.	8f#/L	.	4dd\	.	4d\	.	2.r	.	2.r	.
.	.	8a/	.	.	.	.	.	.	.	.	.
4d\	.	8f#/	.	4r	.	4r	.	.	.	.	.
.	.	8a/	.	.	.	.	.	.	.	.	.
4d\	.	8f#/	.	4r	.	4r	.	.	.	.	.
.	.	8a/J	.	.	.	.	.	.	.	.	.
=261	=261	=261	=261	=261	=261	=261	=261	=261	=261	=261	=261
!	!	!	!	!	!	!LO:TX:a:t=3	!	!	!	!	!
[2.d\	.	(8ccn/L	.	2ff#\	.	2.r	.	2.r	.	2.r	.
.	.	8d/	.	.	.	.	.	.	.	.	.
.	.	8cc	.	.	.	.	.	.	.	.	.
.	.	8d/	.	.	.	.	.	.	.	.	.
.	.	8cc	.	8aa\L	.	.	.	.	.	.	.
.	.	8d/J)	.	8ff#\J	.	.	.	.	.	.	.
!	!	!	!	!LO:LB:g=original	!	!	!	!	!	!	!
=262	=262	=262	=262	=262	=262	=262	=262	=262	=262	=262	=262
2.d\]	.	(8b/L	.	4gg\	.	2.r	.	2.r	.	2.r	.
.	.	8d/	.	.	.	.	.	.	.	.	.
.	.	8b	.	4bb\	.	.	.	.	.	.	.
.	.	8d/	.	.	.	.	.	.	.	.	.
.	.	8b	.	4bb\	.	.	.	.	.	.	.
.	.	8d/J)	.	.	.	.	.	.	.	.	.
!LO:LB:g=original	!	!	!	!	!	!	!	!	!	!	!
=263	=263	=263	=263	=263	=263	=263	=263	=263	=263	=263	=263
2.d\	.	(8g/L	.	4.cc#\	.	2.r	.	2.r	.	2.r	.
.	.	8A/	.	.	.	.	.	.	.	.	.
.	.	8g	.	.	.	.	.	.	.	.	.
.	.	8A/	.	8ee\L	.	.	.	.	.	.	.
.	.	8g	.	8gg\	.	.	.	.	.	.	.
.	.	8A/J)	.	8ee\J	.	.	.	.	.	.	.
=264	=264	=264	=264	=264	=264	=264	=264	=264	=264	=264	=264
*	*	*Xtremolo	*	*	*	*	*	*	*	*	*
4d\	.	(8f#/L	.	4dd\	.	4r	.	2.r	.	2.r	.
.	.	8e/)	.	.	.	.	.	.	.	.	.
!	!	!	!	!	!	!	!LO:DY:a	!	!	!	!
4r	.	8f#/	.	4r	.	4d\	p	.	.	.	.
.	.	8g'/	.	.	.	.	.	.	.	.	.
4r	.	8a'/	.	4r	.	4d\	.	.	.	.	.
.	.	8g'/J	.	.	.	.	.	.	.	.	.
=265	=265	=265	=265	=265	=265	=265	=265	=265	=265	=265	=265
!	!	!	!	!	!	!	!	!	!LO:DY:a	!	!LO:DY:a
(2.D\	.	8f#/L	.	2aan\	.	2.d\	.	2.ccn\	p	2.ff#\	p
.	.	8a/	.	.	.	.	.	.	.	.	.
.	.	8f#/	.	.	.	.	.	.	.	.	.
.	.	8a/	.	.	.	.	.	.	.	.	.
.	.	8ccn/	.	8aa\L	.	.	.	.	.	.	.
.	.	8a/J	.	8ff#\J	.	.	.	.	.	.	.
=266	=266	=266	=266	=266	=266	=266	=266	=266	=266	=266	=266
*	*	*tremolo	*	*	*	*	*	*	*	*	*
2.D\	.	(8b/L	.	4gg\	.	2.d\	.	2.b\	.	2.gg\	.
.	.	8d/	.	.	.	.	.	.	.	.	.
.	.	8b/	.	4dd\	.	.	.	.	.	.	.
.	.	8d/	.	.	.	.	.	.	.	.	.
.	.	8b	.	4bb\	.	.	.	.	.	.	.
.	.	8d/J)	.	.	.	.	.	.	.	.	.
=267	=267	=267	=267	=267	=267	=267	=267	=267	=267	=267	=267
2.D\)	.	(8g/L	.	2gg\	.	2.d\	.	2.cc#X\	.	2.gg\	.
.	.	8A/	.	.	.	.	.	.	.	.	.
.	.	8g/	.	.	.	.	.	.	.	.	.
.	.	8A/	.	.	.	.	.	.	.	.	.
.	.	8g/	.	8ee\L	.	.	.	.	.	.	.
.	.	8A/J)	.	8cc#\J	.	.	.	.	.	.	.
=268	=268	=268	=268	=268	=268	=268	=268	=268	=268	=268	=268
4D/	.	4A/ 4f#	.	4dd\	.	4d\	.	4dd\	.	4ff#\	.
4r	.	4r	.	4r	.	4r	.	4r	.	4r	.
4r	.	4r	.	4ff#\	.	4r	.	4r	.	4r	.
=269	=269	=269	=269	=269	=269	=269	=269	=269	=269	=269	=269
!	!	!	!	!	!	!LO:TX:a:t=3	!	!LO:TX:a:t=3	!	!LO:TX:a:t=3	!
2.F#\	.	2.e/	.	4.a#X/	.	2.r	.	2.r	.	2.r	.
.	.	.	.	(8cc#\L	.	.	.	.	.	.	.
.	.	.	.	8ee\	.	.	.	.	.	.	.
.	.	.	.	8cc#\J)	.	.	.	.	.	.	.
!	!	!	!	!LO:LB:g=original	!	!	!	!	!	!	!
=270	=270	=270	=270	=270	=270	=270	=270	=270	=270	=270	=270
4BB/	.	4d/	.	4b\	.	2.r	.	2.r	.	2.r	.
4r	.	4r	.	4r	.	.	.	.	.	.	.
4r	.	4r	.	4dd\	.	.	.	.	.	.	.
=271	=271	=271	=271	=271	=271	=271	=271	=271	=271	=271	=271
2.D\	.	2.cn/	.	4.ff#\	.	2.r	.	2.r	.	2.r	.
.	.	.	.	8aa\L	.	.	.	.	.	.	.
.	.	.	.	8cccn\	.	.	.	.	.	.	.
.	.	.	.	8aa\J	.	.	.	.	.	.	.
=272	=272	=272	=272	=272	=272	=272	=272	=272	=272	=272	=272
!	!LO:DY:t=f.	!	!LO:DY:t=f.	!	!LO:DY:t=f.	!	!LO:DY:t=f.	!	!	!	!LO:DY:t=f.
*	*	*Xtremolo	*	*	*	*	*	*	*	*	*
8G'\L	f	(8b/L	f	8bb\L	f	4d\	f	4dd\	f	4bb\	f
8F#'\	.	8a/)	.	8aa\	.	.	.	.	.	.	.
8G'\	.	8b'/	.	8bb\	.	4r	.	4r	.	4r	.
8F#'\	.	8a'/	.	8aa\	.	.	.	.	.	.	.
8E'\	.	8g'/	.	8gg\	.	4r	.	4r	.	4r	.
8D#X'\J	.	8f#'/J	.	8ff#\J	.	.	.	.	.	.	.
=273	=273	=273	=273	=273	=273	=273	=273	=273	=273	=273	=273
8E'\L	.	(8g/L	.	8gg\L	.	4e\	.	4b\	.	4gg\	.
8D#X'\	.	8f#/)	.	8ff#\	.	.	.	.	.	.	.
8E'\	.	8g'/	.	8gg\	.	4r	.	4r	.	4r	.
8Dn'\	.	8f#'/	.	8ff#\	.	.	.	.	.	.	.
8C#'\	.	8e'/	.	8ee\	.	4r	.	4r	.	4r	.
8BB'\J	.	8d'/J	.	8dd\J	.	.	.	.	.	.	.
!LO:LB:g=original	!	!	!	!	!	!	!	!	!	!	!
=274	=274	=274	=274	=274	=274	=274	=274	=274	=274	=274	=274
4AA/	.	4e/ 4a	.	8cc#\L	.	4e\	.	2.ee\	.	2.gg\	.
.	.	.	.	8ee\	.	.	.	.	.	.	.
4A\	.	4e/ 4a	.	8aa\	.	4e\	.	.	.	.	.
.	.	.	.	8ee\	.	.	.	.	.	.	.
4c#\	.	4e/ 4a	.	8gg\	.	4e\	.	.	.	.	.
.	.	.	.	8ee\J	.	.	.	.	.	.	.
=275	=275	=275	=275	=275	=275	=275	=275	=275	=275	=275	=275
*^	*	*	*	*	*	*	*	*	*	*	*
4d\	4FF#/	.	4f#/ 4a	.	8ff#\L	.	4f#\	.	4a/	.	4ff#\	.
.	.	.	.	.	8gg\	.	.	.	.	.	.	.
4d\	4FF#/	.	4f#/ 4a	.	8aa\	.	4r	.	4a/	.	4ff#\	.
.	.	.	.	.	8bb\	.	.	.	.	.	.	.
4B\	4FF#/	.	4ff#\	.	8ccc#\	.	4d\	.	4dd\	.	4aa\	.
.	.	.	.	.	8ddd\J	.	.	.	.	.	.	.
*v	*v	*	*	*	*	*	*	*	*	*	*	*
!	!	!	!	!	!	!	!LO:LB:g=original	!	!	!	!
=276	=276	=276	=276	=276	=276	=276	=276	=276	=276	=276	=276
*tremolo	*	*tremolo	*	*	*	*	*	*	*	*	*
8G\L	.	8dd\L	.	4dd\ 4bb	.	4d\	.	4dd\	.	4bb\	.
8G\J	.	8dd\J	.	.	.	.	.	.	.	.	.
*Xtremolo	*	*Xtremolo	*	*	*	*	*	*	*	*	*
*tremolo	*	*tremolo	*	*	*	*	*	*	*	*	*
8A\L	.	8ff#\L	.	4dd\ 4aa	.	4f#\	.	4dd\	.	4ff#\	.
8A\J	.	8ff#\J	.	.	.	.	.	.	.	.	.
*Xtremolo	*	*Xtremolo	*	*	*	*	*	*	*	*	*
*tremolo	*	*tremolo	*	*	*	*	*	*	*	*	*
8AA/L	.	8gg\L	.	4ee\ 4ccc#	.	4e\	.	4cc#\	.	4ee\	.
8AA/J	.	8gg\J	.	.	.	.	.	.	.	.	.
*Xtremolo	*	*Xtremolo	*	*	*	*	*	*	*	*	*
!	!	!LO:LB:g=original	!	!LO:LB:g=original	!	!	!	!	!	!LO:LB:g=original	!
=277	=277	=277	=277	=277	=277	=277	=277	=277	=277	=277	=277
8B\L	.	8dd\L	.	(8ddd\L	.	4d\	.	4dd\	.	4ff#\	.
8A\	.	8cc#\	.	8ccc#\)	.	.	.	.	.	.	.
8B\	.	8dd\	.	8ddd'\	.	4f#\	.	4dd\	.	4dd\	.
8A\	.	8cc#\	.	8ccc#'\	.	.	.	.	.	.	.
8G\	.	8b\	.	8bb'\	.	4f#\	.	4dd\	.	4dd\	.
8F#\J	.	8a\J	.	8aa'\J	.	.	.	.	.	.	.
=278	=278	=278	=278	=278	=278	=278	=278	=278	=278	=278	=278
8G\L	.	8b/L	.	(8bb\L	.	4f#\	.	4b/	.	4dd\	.
8F#\	.	8a/	.	8aa\)	.	.	.	.	.	.	.
8G\	.	8b/	.	8bb'\	.	4r	.	4b/	.	4dd\	.
8F#\	.	8a/	.	8aa'\	.	.	.	.	.	.	.
8E\	.	8g/	.	8gg'\	.	4r	.	4b/	.	4dd\	.
8D\J	.	8f#/J	.	8ff#'\J	.	.	.	.	.	.	.
!	!	!	!	!	!	!	!	!LO:LB:g=original	!	!	!
=279	=279	=279	=279	=279	=279	=279	=279	=279	=279	=279	=279
4E\	.	4e/ 4a	.	8gg\L	.	4d\	.	2.ee\	.	2.gg\	.
.	.	.	.	8a\	.	.	.	.	.	.	.
4A\	.	4e/ 4a	.	8cc#\	.	4r	.	.	.	.	.
.	.	.	.	8ee\	.	.	.	.	.	.	.
4c#\	.	4e/ 4a	.	8aa\	.	4r	.	.	.	.	.
.	.	.	.	8gg\J	.	.	.	.	.	.	.
=280	=280	=280	=280	=280	=280	=280	=280	=280	=280	=280	=280
4d\	.	4e/ 4a	.	8ff#\L	.	4d\	.	2.dd\	.	2.ff#\	.
.	.	.	.	8dd\	.	.	.	.	.	.	.
4D\	.	4e/ 4a	.	8ff#\	.	4r	.	.	.	.	.
.	.	.	.	8aa\	.	.	.	.	.	.	.
4F#\	.	4d/ 4a	.	8ddd\	.	4r	.	.	.	.	.
.	.	.	.	8aa\J	.	.	.	.	.	.	.
=281	=281	=281	=281	=281	=281	=281	=281	=281	=281	=281	=281
8G\L	.	8dd\	.	8dd\ 8bb	.	2.ryy	.	2.b\	.	2.dd\	.
8F#\	.	4dd\	.	4dd\ 4bb	.	.	.	.	.	.	.
8G\	.	.	.	.	.	.	.	.	.	.	.
8A\	.	4dd\	.	4dd\ 4bb	.	.	.	.	.	.	.
8B\	.	.	.	.	.	.	.	.	.	.	.
8A\J	.	8dd\	.	8dd\ 8bb	.	.	.	.	.	.	.
=282	=282	=282	=282	=282	=282	=282	=282	=282	=282	=282	=282
*	*	*^	*	*^	*	*	*	*	*	*	*
8G#X\L	.	8ee/	2.b\	.	8ee\	2.ddd\	.	2.ryy	.	2.dd\	.	2.ee\	.
8F#\	.	4ee/	.	.	4ee\	.	.	.	.	.	.	.	.
8G#\	.	.	.	.	.	.	.	.	.	.	.	.	.
8A\	.	4ee/	.	.	4ee\	.	.	.	.	.	.	.	.
8B\	.	.	.	.	.	.	.	.	.	.	.	.	.
8G#\J	.	8ee/	.	.	8ee\	.	.	.	.	.	.	.	.
*	*	*v	*v	*	*	*	*	*	*	*	*	*	*
*	*	*	*	*v	*v	*	*	*	*	*	*	*
!LO:LB:g=original	!	!	!	!	!	!	!	!	!	!	!
=283	=283	=283	=283	=283	=283	=283	=283	=283	=283	=283	=283
*tremolo	*	*	*	*	*	*	*	*	*	*	*
8A\L	.	4bb\	.	4ccc#\	.	2.ryy	.	4cc#\	.	4ee\	.
8A\	.	.	.	.	.	.	.	.	.	.	.
8A\	.	4bb\	.	4ccc#\	.	.	.	4ee\	.	4gg\	.
8A\J	.	.	.	.	.	.	.	.	.	.	.
*Xtremolo	*	*	*	*	*	*	*	*	*	*	*
*tremolo	*	*	*	*	*	*	*	*	*	*	*
8B\L	.	4gg\	.	4ddd\	.	.	.	4dd\	.	4ff#\	.
8B\J	.	.	.	.	.	.	.	.	.	.	.
*Xtremolo	*	*	*	*	*	*	*	*	*	*	*
!	!	!	!	!LO:LB:g=original	!	!	!	!	!	!	!
=284	=284	=284	=284	=284	=284	=284	=284	=284	=284	=284	=284
*tremolo	*	*	*	*	*	*	*	*	*	*	*
!	!	!LO:TX:t=P:problem=mixed beam	!	!	!	!	!	!	!	!	!
8G\L	.	8ff#\L	.	4eee\	.	2.ryy	.	4b\	.	4gg\	.
8G\	.	8a\	.	.	.	.	.	.	.	.	.
8G\	.	8f#\	.	4eee\	.	.	.	4b\	.	4gg\	.
8G\J	.	8a\	.	.	.	.	.	.	.	.	.
*Xtremolo	*	*	*	*	*	*	*	*	*	*	*
*tremolo	*	*	*	*	*	*	*	*	*	*	*
8A\L	.	8f#\	.	4ccc#\	.	.	.	4cc#\	.	4ee\	.
!	!	!LO:TX:b:t=Werte	!	!	!	!	!	!	!	!	!
8A\J	.	8a\J	.	.	.	.	.	.	.	.	.
*Xtremolo	*	*	*	*	*	*	*	*	*	*	*
!	!	!LO:LB:g=original	!	!	!	!	!	!	!	!	!
=285	=285	=285	=285	=285	=285	=285	=285	=285	=285	=285	=285
*	*	*tremolo	*	*	*	*	*	*	*	*	*
4d\	.	8f#/L	.	4ddd\	.	2.ryy	.	4dd\	.	4ff#\	.
.	.	8a/	.	.	.	.	.	.	.	.	.
4A\	.	8f#/	.	4r	.	.	.	4dd\	.	4ff#\	.
.	.	8a/	.	.	.	.	.	.	.	.	.
*	*	*Xtremolo	*	*	*	*	*	*	*	*	*
4F#\	.	8g/L	.	4aa\	.	.	.	4ff#\	.	4aa\	.
.	.	8a/J	.	.	.	.	.	.	.	.	.
=286	=286	=286	=286	=286	=286	=286	=286	=286	=286	=286	=286
*	*	*tremolo	*	*	*	*	*	*	*	*	*
4D\	.	8f#/L	.	4ff#\	.	2.ryy	.	4dd\	.	4ff#\	.
.	.	8a/	.	.	.	.	.	.	.	.	.
4F#\	.	8f#/	.	4ff#\	.	.	.	4dd\	.	4ff#\	.
.	.	8a/	.	.	.	.	.	.	.	.	.
4A\	.	8f#/	.	4ee\	.	.	.	4cc#\	.	4gg\	.
.	.	8a/J	.	.	.	.	.	.	.	.	.
=287	=287	=287	=287	=287	=287	=287	=287	=287	=287	=287	=287
4d\	.	8f#/L	.	4dd\	.	2.ryy	.	4dd\	.	4ff#\	.
.	.	8a/	.	.	.	.	.	.	.	.	.
4A\	.	8f#/	.	4r	.	.	.	4dd\	.	4ff#\	.
.	.	8a/J	.	.	.	.	.	.	.	.	.
*	*	*Xtremolo	*	*	*	*	*	*	*	*	*
4F#\	.	8g/L	.	4aa\	.	.	.	4ff#\	.	4aa\	.
.	.	8a/J	.	.	.	.	.	.	.	.	.
=288	=288	=288	=288	=288	=288	=288	=288	=288||:	=288	=288	=288
*	*	*tremolo	*	*	*	*	*	*	*	*	*
4G\	.	8f#/L	.	4ff#\	.	2.ryy	.	4dd\	.	4ff#\	.
.	.	8a/	.	.	.	.	.	.	.	.	.
4F#\	.	8f#/	.	4ff#\	.	.	.	4dd\	.	4ff#\	.
.	.	8a/J	.	.	.	.	.	.	.	.	.
*	*	*Xtremolo	*	*	*	*	*	*	*	*	*
4A\	.	8g/L	.	4ee\	.	.	.	4cc#\	.	4gg\	.
.	.	8a/J	.	.	.	.	.	.	.	.	.
=289	=289	=289	=289	=289	=289	=289	=289	=289:||	=289	=289	=289
!	!	!	!	!	!	!	!	!LO:TX:t=P:problem=Takt 289 zapisany repetycją	!	!	!
*	*	*tremolo	*	*	*	*	*	*	*	*	*
4D\	.	8f#/L	.	4dd\	.	2.ryy	.	4dd\yy	.	4ff#\	.
.	.	8a/	.	.	.	.	.	.	.	.	.
4F#\	.	8f#/	.	4ff#\	.	.	.	4dd\yy	.	4ff#\	.
.	.	8a/J	.	.	.	.	.	.	.	.	.
*	*	*Xtremolo	*	*	*	*	*	*	*	*	*
4A\	.	8g/L	.	4ee\	.	.	.	4cc#\yy	.	4gg\	.
.	.	8a/J	.	.	.	.	.	.	.	.	.
=290	=290	=290	=290	=290	=290	=290	=290	=290	=290	=290	=290
!	!	!LO:TX:t=P:problem=brakujący takt?	!	!	!	!	!	!	!	!	!
4D\	.	2.ryy	.	4dd\	.	2.ryy	.	4dd\	.	4ff#\	.
4F#\	.	.	.	4ff#\	.	.	.	4ff#\	.	4aa\	.
4A\	.	.	.	4ee\	.	.	.	4ee\	.	4gg\	.
=291	=291	=291	=291	=291	=291	=291	=291	=291	=291	=291	=291
*	*	*	*	*^	*	*	*	*	*	*	*
4d\	.	4f#/ 4a	.	4dd\	4ryy	.	2.ryy	.	4dd\	.	4ff#\	.
4A\	.	4d/ 4a 4ff#	.	4ff#\ 4ddd	4d/	.	.	.	4dd\	.	4ff#\	.
4F#\	.	4d/ 4a 4ff#	.	4ff#\ 4ddd	4d/	.	.	.	4dd\	.	4ff#\	.
=292	=292	=292	=292	=292	=292	=292	=292	=292	=292	=292	=292	=292
4D\	.	4d/ 4a 4ff#	.	4ff#\ 4ddd	4d/	.	2.ryy	.	4dd\	.	4ff#\	.
4r	.	4r	.	4r	4ryy	.	.	.	4r	.	4r	.
4r	.	4r	.	4r	4ryy	.	.	.	4r	.	4r	.
!	!	!	!	!	!LO:LB:g=original	!	!	!	!	!	!LO:LB:g=original	!
=293	=293	=293	=293	=293	=293	=293	=293	=293	=293	=293	=293	=293
4D\	.	4d/ 4a 4ff#	.	4ff#\ 4ddd	4d/	.	2.ryy	.	4dd\	.	4ff#\	.
4r	.	4r	.	4r	4ryy	.	.	.	4r	.	4r	.
4r	.	4r	.	4r	4ryy	.	.	.	4r	.	4r	.
!LO:LB:g=original	!	!	!	!	!	!	!	!	!	!	!	!
=294	=294	=294	=294	=294	=294	=294	=294	=294	=294	=294	=294	=294
4D/	.	4d/ 4a 4ff#	.	4ff#\ 4ddd	4d/	.	2.ryy	.	4dd\	.	4ff#\	.
4r	.	4r	.	4r	4ryy	.	.	.	4r	.	4r	.
4r	.	4r	.	4r	4ryy	.	.	.	4r	.	4r	.
*	*	*	*	*v	*v	*	*	*	*	*	*	*
==	==	==	==	==	==	==	==	==	==	==	==
*-	*-	*-	*-	*-	*-	*-	*-	*-	*-	*-	*-
!!!system-decoration: [(s1,s2)][(s3)][([(s4,s5)]s6)]
!!!ENC: Tomasz Grochalski
!!!END: 2020-12-10
!!!ENC: Jan Barakat
!!!END: 2022-02-08
!!!YEC: Copyright 2022 Narodowy Instytut Fryderyka Chopina (https://polishscores.org)
!!!YEM: License CC-BY-4.0 (https://creativecommons.org/licenses/by/4.0)
